pcmichaud/decum_py/output/joint_floor.csv
,wgt,cma,married,own,wealth_total,mort_balance,home_value,age,totinc,retinc,hlth,sp_age,sp_totinc,sp_retinc,sp_hlth,pref_beq_money,pref_home,pref_live_fast,pref_risk_averse,know_ann,know_ltci,know_rmr,"gamma(2,1)","delta(1,2)","delta(2,2)","delta(3,2)","gamma(3,1)","delta(1,3)","delta(2,3)","delta(3,3)","gamma(4,1)","delta(1,4)","delta(2,4)","delta(3,4)","sp_gamma(2,1)","sp_delta(1,2)","sp_delta(2,2)","sp_delta(3,2)","sp_gamma(3,1)","sp_delta(1,3)","sp_delta(2,3)","sp_delta(3,3)","sp_gamma(4,1)","sp_delta(1,4)","sp_delta(2,4)","sp_delta(3,4)",xi,xi_sp,miss_psurv85,sp_miss_psurv85,mu,zeta,prem_scn_ann_1,prem_scn_ann_2,prem_scn_ann_3,prem_scn_ann_4,prem_scn_ltci_1,prem_scn_ltci_2,prem_scn_ltci_3,prem_scn_ltci_4,int_scn_rmr_1,int_scn_rmr_2,int_scn_rmr_3,int_scn_rmr_4,ben_scn_ann_1,ben_scn_ann_2,ben_scn_ann_3,ben_scn_ann_4,ben_scn_ltci_1,ben_scn_ltci_2,ben_scn_ltci_3,ben_scn_ltci_4,loan_scn_rmr_1,loan_scn_rmr_2,loan_scn_rmr_3,loan_scn_rmr_4,prob_scn_ann_1,prob_scn_ann_2,prob_scn_ann_3,prob_scn_ann_4,prob_scn_ltci_1,prob_scn_ltci_2,prob_scn_ltci_3,prob_scn_ltci_4,prob_scn_rmr_1,prob_scn_rmr_2,prob_scn_rmr_3,prob_scn_rmr_4,nh_0,nh_1,nh_2,hc_0,hc_1,hc_2,g,sig,base_value,price_ann_fair,price_ltci_fair,price_rmr_fair,female,college,nkids,anykids,university,price_ann_fair_avg,price_ltci_fair_avg,price_rmr_fair_avg,buy_ann_joint,buy_ltci_joint,buy_rmr_joint,buy_ann_indp,buy_ltci_indp,buy_rmr_indp,seed
857,1278.4983244321725,6,0,1,553.863,0.0,450.0,62,56.14318556451503,10.0,1,,,,,0,0,0,0,1,0,0,0.0651966938932999,-2.6589547711849217,-0.0441738720202438,-0.0511722985136136,0.0998965182037212,-4.382295907659727,-1.8093947855390848,-0.0033415162390352,0.2155536533471047,-5.903692192380625,-3.680936129838555,-2.335664360467703,,,,,,,,,,,,,,,1,,0.6218589280351817,1.5,110.773,276.932,110.773,276.932,0.852,4.248,1.272,5.1000000000000005,0.02,0.04,0.08,0.06,7.776,7.776,4.668,23.34,24.0,48.0,24.0,48.0,67.5,135.0,67.5,135.0,0.01,0.01,0.01,0.5,0.5,0.25,0.2,0.2,0.01,0.01,0.01,0.01,0.0,24.936924647364513,49.87384929472903,2.536366587941094,5.239878687317201,8.900934583201554,0.026107100346319,0.0254617632609707,506.90885363048835,17.579876496133178,0.0865793963309989,0.0,1,0.0,1.0,1,1.0,19.489219370038562,0.10348240557545837,0.0005892459624384037,0.0,0.0,0.0,0.0,0.0,0.0,
1035,897.8346892314378,6,0,1,210.0,0.0,320.0,70,58.4017377968338,58.4017377968338,1,,,,,0,1,0,1,0,0,0,0.0847688584572354,-4.43586214340842,-1.6909508849188988,-2.0439326520194943,0.1087664106828822,-5.357868843509506,-2.68152261743595,-1.1289218161544892,0.2673943496190545,-8.021394223472381,-5.844942870341444,-4.645266570138979,,,,,,,,,,,,,-0.3926767219106483,,0,,-1.0,1.5,42.0,105.0,42.0,105.0,1.464,5.856,2.436,1.956,0.02,0.04,0.08,0.06,2.364,9.864,4.74,3.948,24.0,48.0,24.0,48.0,64.0,128.0,64.0,128.0,0.01,0.5,0.6,0.01,0.6,0.3,0.6,0.8,0.25,0.01,0.01,0.01,0.0,24.936924647364513,49.87384929472903,2.536366587941094,5.239878687317201,8.900934583201554,0.026107100346319,0.0254617632609707,506.90885363048835,15.110513041814542,0.0609350972491287,0.0,0,0.0,5.0,1,1.0,12.880469113325246,0.11827946208135254,0.00022318413820896142,0.0,0.0,1.0,0.0,0.0,1.0,
1369,880.8996211331786,8,1,1,500.0,230.0,425.0,66,59.79277453683102,59.79277453683102,1,70,129.61579259628797,129.61579259628797,3,0,0,0,0,0,1,1,0.090273743273897,-2.717215304606854,-0.080661631971808,-0.3370507900629282,0.1450368963784873,-4.138695716476418,-1.6334672790158131,0.3618022595213394,0.316232734693074,-7.968403999091302,-5.504610667498668,-3.461631776005219,0.1064859024869152,-4.205441131440699,-1.6615253005416997,-2.562572296285266,0.1905109355312935,-6.02167438090828,-3.584929299164956,-2.8296312333466416,0.2771140237682483,-7.812398132104584,-5.530200525371945,-4.920566388716237,-3.5976189020268,1.2873059102201454,0,0.0,-1.0,1.5,100.0,250.0,100.0,250.0,3.336,5.5680000000000005,1.116,3.336,0.02,0.04,0.06,0.08,3.108,19.452,9.336,11.664,24.0,48.0,24.0,48.0,39.0,78.0,39.0,78.0,0.01,0.01,0.01,0.01,0.01,0.01,0.01,0.01,0.01,0.01,0.01,0.01,0.0,32.09742370955316,64.19484741910632,2.1998430747922435,3.4203056840352795,5.829138756586768,0.0281543378617289,0.0424875023147554,664.7986287229243,15.010833785450938,0.2518232991037995,0.0,1,0.0,2.0,1,1.0,16.882965937583535,0.13800724551416013,0.00040831085282485224,0.0,1.0,1.0,0.0,1.0,1.0,
608,1278.4983244321725,7,0,1,0.0,0.0,1500.0,65,53.01109411364173,53.01109411364173,1,,,,,0,1,1,1,0,1,1,0.076797360791906,-3.428571993172199,-0.786663946084358,-1.0498171050641387,0.1123587737960726,-5.1333526438969805,-2.655351064559829,-0.991390481056172,0.2357143231108265,-6.923100380479457,-4.75254746018462,-3.440514460089975,,,,,,,,,,,,,,,1,,-1.0,0.5607410302174016,24.0,60.0,24.0,60.0,2.7840000000000003,2.22,1.668,6.672,0.08,0.02,0.06,0.04,0.732,2.724,1.812,5.448,24.0,48.0,24.0,48.0,300.0,600.0,300.0,600.0,0.01,0.01,0.01,0.01,0.1,0.01,0.01,0.01,0.01,0.01,0.01,0.01,0.0,22.588588178913746,45.17717635782749,2.5323437587719293,4.062366946087904,5.303487504109683,0.0429280377108032,0.0337495491155457,400.1858597446627,17.563668777282764,0.0591489382852845,0.0,1,0.0,0.0,0,1.0,17.60203212252335,0.106325169514276,0.00033087298198480907,0.0,0.0,1.0,0.0,0.0,1.0,
1021,4230.715283026676,1,1,1,65.0,0.0,1000.0,62,48.68705267489093,42.220122303215135,1,65,0.0,0.0,1,1,1,1,1,0,0,0,0.070680658189116,-2.1498527089646817,0.4168172239491286,0.4029063471936322,0.1175104734469071,-3.5768320579545594,-1.0450961609131415,0.9099347933563032,0.2664044850817423,-6.689218475339585,-4.3308640303157055,-2.4824944827265845,0.0741434193014573,-3.9026527016202737,-1.1954795503342774,-1.3888508472292282,0.0935305281613599,-4.682247707176992,-2.08698909261752,-0.40030608987623,0.1610571425696267,-6.043112866479007,-3.948782844871948,-2.554064379152521,,,1,1.0,-0.0523569845897126,1.5,13.0,32.5,13.0,32.5,1.272,4.248,2.556,1.704,0.06,0.04,0.02,0.08,0.912,1.368,1.092,0.912,24.0,48.0,24.0,48.0,150.0,300.0,150.0,300.0,0.01,0.01,0.01,0.01,0.6,0.25,0.25,0.6,0.5,0.6,0.75,0.15,0.0,32.1619819391635,64.323963878327,2.235097731158449,3.4660048596689492,5.9043272610017095,0.0438750794702872,0.036731444540163,946.2708670639884,17.339731693762417,0.2445274009394129,0.0,1,1.0,2.0,1,0.0,19.489219370038562,0.10348240557545837,0.0005892459624384037,0.0,1.0,1.0,0.0,0.0,1.0,
916,4942.474513256949,7,0,1,57.7,0.0,700.0,69,46.96239861689803,46.96239861689803,1,,,,,0,0,0,0,0,0,0,0.1059728384619138,-3.7808460424106674,-1.1228406782062426,-1.3031508269723888,0.1283680120275809,-4.410398516631456,-1.7231056319572176,-0.374057357497067,0.2771803373038319,-6.541456162470688,-4.140850825671423,-2.9533183299928774,,,,,,,,,,,,,-4.115392828888639,,0,,-0.9050082593205588,1.5,19.54,48.85,19.54,48.85,1.464,5.856,0.972,4.884,0.04,0.02,0.08,0.06,1.092,1.812,2.184,4.548,24.0,48.0,24.0,48.0,140.0,280.0,140.0,280.0,0.01,0.01,0.01,0.01,0.01,0.01,0.01,0.01,0.01,0.01,0.01,0.01,0.0,22.588588178913746,45.17717635782749,2.5323437587719293,4.062366946087904,5.303487504109683,0.0429280377108032,0.0337495491155457,400.1858597446627,10.9546222788353,0.12934271493931,0.0,0,0.0,2.0,1,0.0,13.99234977104385,0.09594660334871877,0.00038075079316306107,1.0,1.0,1.0,0.0,1.0,1.0,
1101,2740.425636006952,10,0,1,275.0,0.0,285.0,68,26.944901400077942,26.944901400077942,1,,,,,1,0,0,1,0,0,0,0.0800180413965128,-2.3133583503757054,0.3121121779157831,0.0903846822752012,0.1392401119679152,-4.158679274481649,-1.684620099987877,0.197436149127431,0.3087012844726667,-7.464710140106578,-5.051983909025385,-3.385502293685404,,,,,,,,,,,,,0.0752875287138965,,0,,0.3619998505759493,0.1112248550004543,63.0,157.5,63.0,157.5,3.336,5.5680000000000005,1.116,3.336,0.04,0.02,0.08,0.06,5.196,5.196,6.24,7.8,24.0,48.0,24.0,48.0,57.0,114.0,57.0,114.0,0.01,0.01,0.01,0.01,0.01,0.01,0.01,0.01,0.01,0.01,0.01,0.01,0.0,41.39015444015444,82.78030888030888,2.3336076037480025,5.1821760625230135,9.658244768779062,0.0189251467931155,0.025284283298686,311.31759594053744,12.94824740296482,0.2057050285479555,0.0,1,0.0,4.0,1,1.0,15.215956831660215,0.15964289855360925,0.0002476419693828722,0.0,0.0,1.0,0.0,0.0,1.0,
976,1278.4983244321725,6,1,1,408.77373818632424,0.0,750.0,65,61.21302243939238,61.21302243939238,1,67,37.73405492839256,37.73405492839256,1,0,1,1,0,0,0,0,0.0782740354493999,-3.665950497814424,-0.9682528863293848,-1.0637559592738213,0.1071291258062423,-5.257648096951324,-2.640908373830172,-0.7727954947654838,0.2537259574573561,-7.886904043314789,-5.6438931533350685,-4.237591023151817,0.0771519235488062,-4.307992826897506,-1.5249893025342751,-1.6925750145471694,0.0936181487167384,-5.029385894198235,-2.360308149868417,-0.5711669026366446,0.1581836974488578,-6.163473262735447,-4.056816097634649,-2.581277128723108,-1.18658480424203,-1.4147250971181886,0,0.0,0.1431708707147384,1.3173860661475267,105.0,262.5,105.0,262.5,1.116,6.672,2.7840000000000003,3.336,0.04,0.08,0.02,0.06,4.764,19.86,3.18,23.832,24.0,48.0,24.0,48.0,150.0,300.0,150.0,300.0,0.01,0.01,0.01,0.01,0.5,0.25,0.25,0.65,0.01,0.01,0.01,0.01,0.0,24.936924647364513,49.87384929472903,2.536366587941094,5.239878687317201,8.900934583201554,0.026107100346319,0.0254617632609707,506.90885363048835,19.43988168591598,0.0616046458804536,0.0001511628256198,1,0.0,0.0,0,1.0,17.60203212252335,0.106325169514276,0.00033087298198480907,0.0,0.0,1.0,0.0,0.0,1.0,
932,580.936724934376,8,1,1,180.0,65.0,360.0,62,5.699991854154515,5.699991854154515,1,63,0.4999992854521505,0.4999992854521505,1,0,0,1,0,0,0,0,0.0782134800034487,-3.974262479751308,-1.3121878878969095,-1.630482051199008,0.1082961585868745,-4.995372479924849,-2.4266215349294384,-1.0147798263758774,0.194677747049731,-6.05764881674246,-4.039220498251627,-2.9056318796011453,0.0808925555547528,-2.3004683734991445,0.3632388940022681,0.3154298629762327,0.1264026814411649,-3.888936305325609,-1.261498267648446,0.6789471854389468,0.2668854793537745,-7.450618980646419,-5.035069301491503,-3.293736639456812,0.490444371617074,-1.0440292430611433,0,0.0,0.5745397373879373,0.5391564617020568,36.0,90.0,36.0,90.0,2.208,3.684,1.104,1.476,0.08,0.04,0.06,0.02,3.2760000000000002,2.724,1.6320000000000001,6.816,24.0,48.0,24.0,48.0,44.25,88.5,44.25,88.5,0.01,0.01,0.01,0.01,0.01,0.01,0.01,0.01,0.01,0.01,0.01,0.01,0.0,32.09742370955316,64.19484741910632,2.1998430747922435,3.4203056840352795,5.829138756586768,0.0281543378617289,0.0424875023147554,664.7986287229243,19.72808610616235,0.0593900936388114,0.0,0,0.0,1.0,1,1.0,18.9349187337184,0.08318727456763397,0.0005606369111209724,0.0,0.0,1.0,0.0,0.0,1.0,
712,4230.715283026676,1,1,1,460.0,0.0,1500.0,63,51.04627042361914,10.721994469291593,1,68,52.747812771073114,55.396971424673225,1,0,0,0,0,0,0,1,0.0833670616131995,-3.446182448144068,-0.7737836694661873,-0.9362624069248908,0.1071080996058179,-4.929286911422589,-2.27215104523427,-0.6516972451415515,0.2639523960851203,-7.955969856859698,-5.575005807228054,-4.375019870276263,0.0933843571471104,-3.897980709886975,-1.2385651630397778,-1.4869307467977475,0.1154396903089579,-4.564513855614632,-1.921638044033992,-0.4041892320327377,0.2017877731901816,-6.574071294389382,-4.264819036523851,-2.952000310593184,-1.0284370296920091,-1.1285180939799184,0,0.0,-0.1915112181381724,1.5,112.0,280.0,112.0,280.0,2.124,1.704,1.272,5.1000000000000005,0.04,0.06,0.02,0.08,3.228,12.096,9.684000000000001,20.16,24.0,48.0,24.0,48.0,225.0,450.0,225.0,450.0,0.01,0.5,0.65,0.8,0.5,0.5,0.65,0.01,0.01,0.01,0.01,0.01,0.0,32.1619819391635,64.323963878327,2.235097731158449,3.4660048596689492,5.9043272610017095,0.0438750794702872,0.036731444540163,946.2708670639884,20.46116847857788,0.0762897306793678,0.0,1,1.0,2.0,1,0.0,19.434645553925925,0.1014444580319395,0.00023717053340662915,0.0,0.0,0.0,0.0,0.0,0.0,
1272,688.7628253365825,5,1,1,199.2674691481501,0.0,250.0,68,52.40004827700235,52.40004827700235,1,68,0.0,0.0,1,1,0,1,0,0,0,0,0.0847162480947921,-4.406087989055991,-1.7551427509908646,-1.9237160267273583,0.1093685021580093,-5.175976703401434,-2.680144796337246,-1.0397295741846693,0.2199182699985413,-6.797357345180848,-4.745890339476896,-3.4402892602602595,0.0951648218526938,-3.571728118418626,-0.9437326240583648,-1.1986789601540373,0.1221631468623207,-4.751123393745049,-2.1132204029253727,-0.5420411839783128,0.2462934490192811,-7.654812991856959,-5.194878627240967,-3.873579083383573,,,1,1.0,-1.0,1.1177232127821843,43.0,107.5,43.0,107.5,2.928,1.956,2.436,2.928,0.04,0.02,0.08,0.06,4.632,9.648,1.548,5.784,24.0,48.0,24.0,48.0,50.0,100.0,50.0,100.0,0.5,0.5,0.01,0.01,0.5,0.6,0.5,0.6,0.01,0.01,0.01,0.01,0.0,32.031151990632324,64.06230398126465,2.1646502144932884,3.3744944371027596,5.753697696170352,0.0358802014094379,0.0857260427109676,509.9286737055783,15.992765415344198,0.0651790411906435,0.0011926995903332,0,0.0,3.0,1,1.0,14.218084462965704,0.10230581503793665,0.0004778916861401938,0.0,0.0,0.0,0.0,0.0,0.0,
935,688.7628253365825,5,1,1,70.0055,0.0,300.0,68,25.1,25.1,1,66,20.0,20.0,1,0,1,0,0,0,0,0,0.0824475143136665,-4.131305805767559,-1.4324755031996137,-1.8457145776371096,0.11192273866242,-5.173529017803349,-2.5965259960479194,-1.146419308398143,0.2226544293902045,-6.748292480163387,-4.698485278554532,-3.501848522516433,0.0837251523928383,-3.71295480246046,-0.961025043698407,-1.2387556130939603,0.110463271917252,-5.142838265798568,-2.48917997285154,-0.7840648143920341,0.2182597323763243,-7.471958942132208,-5.061002660116287,-3.827735620970188,-1.2661265997176632,-0.5914163296345187,0,0.0,0.2496759833430508,0.0098013302559144,774.0,1935.0,774.0,1935.0,1.464,4.884,0.972,5.856,0.06,0.08,0.04,0.02,69.48,69.48,41.688,208.428,24.0,48.0,24.0,48.0,60.0,120.0,60.0,120.0,0.01,0.01,0.01,0.01,0.1,0.01,0.2,0.01,0.01,0.01,0.01,0.01,0.0,32.031151990632324,64.06230398126465,2.1646502144932884,3.3744944371027596,5.753697696170352,0.0358802014094379,0.0857260427109676,509.9286737055783,15.650243459376217,0.0678236619398587,0.0011532456170528,0,0.0,2.0,1,1.0,14.218084462965704,0.10230581503793665,0.0004778916861401938,1.0,0.0,1.0,0.0,0.0,1.0,
841,688.7628253365825,5,1,1,310.0,0.0,465.0,66,7.926091891240722,7.926091891240722,1,68,38.21772972329041,38.21772972329041,2,0,1,0,1,1,1,1,0.0838595585503488,-4.145100914539493,-1.5098153642536862,-1.9000104099824493,0.1099403629445887,-5.062310310593224,-2.543782507850028,-1.1426986183635002,0.1807880238541884,-5.456703020221787,-3.5010650057563355,-2.358652336122582,0.0837457568965736,-3.0956402262753566,-0.5650141492294402,-0.5262928622195766,0.1279645813806006,-4.593716927857182,-2.1974561353906994,-0.342528395283395,0.2584572471713076,-7.267445244939328,-5.023797812569378,-3.482305736068166,1.354978431243506,1.5078125133248632,0,0.0,-1.0,1.5,142.0,355.0,142.0,355.0,1.464,4.884,0.972,5.856,0.04,0.02,0.08,0.06,14.376,11.976,7.188,29.94,24.0,48.0,24.0,48.0,93.0,186.0,93.0,186.0,0.01,0.01,0.01,0.01,0.01,0.01,0.01,0.01,0.01,0.01,0.01,0.01,0.0,32.031151990632324,64.06230398126465,2.1646502144932884,3.3744944371027596,5.753697696170352,0.0358802014094379,0.0857260427109676,509.9286737055783,15.384118700160744,0.0571451773051454,0.0003836069828553,0,0.0,2.0,1,1.0,15.698780185578718,0.09685849446736142,0.0004563119380560841,0.0,0.0,0.0,0.0,0.0,0.0,
537,6357.119592832336,4,1,1,280.0,0.0,350.0,69,47.7750273466694,47.7750273466694,1,70,63.26937541186212,63.26937541186212,1,0,0,0,1,0,0,0,0.0961105203456975,-3.62068704522613,-0.9859701987423404,-1.2656778610030082,0.1282357826852546,-4.873866909377583,-2.3588559628099697,-0.8122583197359414,0.3042356891294905,-8.561481012647649,-6.045545260635227,-4.852191043425807,0.0953129536612545,-4.321271349620147,-1.643256907491783,-1.9646171233312968,0.1141589338148101,-4.682374039899524,-2.0014508868300287,-0.5580323117772493,0.2407970708399631,-7.603738366727295,-5.240487634968973,-3.9599253061304367,-2.848073866657925,-2.453713659578431,0,0.0,0.0953343657489091,0.3805029960070216,64.0,160.0,64.0,160.0,1.668,2.22,2.7840000000000003,6.672,0.04,0.08,0.06,0.02,2.172,13.536,6.5040000000000004,8.124,24.0,48.0,24.0,48.0,70.0,140.0,70.0,140.0,0.01,0.01,0.01,0.01,0.01,0.01,0.01,0.01,0.01,0.01,0.01,0.01,0.0,24.86167960088692,49.72335920177384,2.5378968308832714,5.281575561080865,8.983375793960331,0.030374370190118,0.0813404307523295,540.3203242905112,14.85255488291951,0.1257040166381806,0.0016593722997411,1,0.0,1.0,1,0.0,14.882781132501421,0.11566076031761527,9.726445745082914e-05,0.0,1.0,1.0,0.0,1.0,1.0,
646,4230.715283026676,6,0,1,9.0,190.0,325.0,64,22.0995992160771,22.0995992160771,1,,,,,1,1,1,0,0,0,0,0.0948757773821547,-2.755664496273663,-0.059730075166966,-0.1585951030797961,0.13536252910433,-4.047131785022347,-1.426720018590577,0.4747556176542942,0.3198798863321347,-8.46479416656848,-5.843846140102941,-3.951765984634173,,,,,,,,,,,,,,,1,,-0.0106921384088464,1.5,9.8,24.5,9.8,24.5,2.556,2.556,0.852,4.248,0.02,0.04,0.08,0.06,0.28800000000000003,1.812,0.864,1.092,24.0,48.0,24.0,48.0,20.25,40.5,20.25,40.5,0.01,0.01,0.01,0.01,0.01,0.25,0.05,0.01,0.99,0.9,0.5,0.6,0.0,24.936924647364513,49.87384929472903,2.536366587941094,5.239878687317201,8.900934583201554,0.026107100346319,0.0254617632609707,506.90885363048835,17.732457206745,0.2513380923288923,0.0,1,1.0,1.0,1,0.0,18.422343696589962,0.11008879961505236,0.00037674610736641146,0.0,0.0,1.0,0.0,0.0,1.0,
603,8497.513381368772,1,0,1,575.0,0.0,370.0,67,10.0,10.0,1,,,,,0,1,0,0,1,0,0,0.0969250009082375,-3.662381339417258,-0.9693685132402164,-1.192872979458662,0.1168729541096624,-4.774654709919288,-2.1288712717963567,-0.4401940933749869,0.2815136399440543,-8.031787203688557,-5.581104419491387,-4.139864328030735,,,,,,,,,,,,,-2.9198612945897846,,0,,0.147602567632436,0.0112389509727147,115.0,287.5,115.0,287.5,3.336,3.336,1.116,5.5680000000000005,0.04,0.02,0.06,0.08,3.684,13.812000000000001,11.052,23.028000000000002,24.0,48.0,24.0,48.0,74.0,148.0,74.0,148.0,0.01,0.01,0.01,0.01,0.01,0.01,0.01,0.01,0.01,0.01,0.01,0.01,0.0,32.1619819391635,64.323963878327,2.235097731158449,3.4660048596689492,5.9043272610017095,0.0438750794702872,0.036731444540163,946.2708670639884,16.287497234167912,0.1105562672160429,0.0,1,0.0,0.0,0,0.0,16.750114576986952,0.11057572623512782,0.00019092961705503104,0.5,0.0,1.0,0.0,0.0,1.0,
1133,897.8346892314378,6,0,1,6.0,0.0,350.0,63,31.400313818046655,31.400313818046655,1,,,,,0,1,0,1,0,0,0,0.0856495605597628,-4.370805089473967,-1.6314800881507263,-1.7345099876868917,0.1078868203234924,-5.259851923285924,-2.7048927221355585,-0.9081900591541738,0.2175030919238287,-6.72461580543495,-4.669461907814048,-3.244115390702732,,,,,,,,,,,,,-1.2114983925917675,,0,,0.1720238643391456,0.840731232053434,81.2,203.0,81.2,203.0,1.836,4.416,1.104,1.476,0.06,0.04,0.08,0.02,7.596,9.492,6.324,6.324,24.0,48.0,24.0,48.0,52.5,105.0,52.5,105.0,0.1,0.05,0.1,0.01,0.1,0.05,0.25,0.25,0.01,0.01,0.01,0.01,0.0,24.936924647364513,49.87384929472903,2.536366587941094,5.239878687317201,8.900934583201554,0.026107100346319,0.0254617632609707,506.90885363048835,19.823549698908327,0.0483953379406104,9.03979816859763e-05,0,0.0,0.0,0,1.0,18.180088810367447,0.08299952010681523,0.000327539308753741,0.0,0.0,1.0,0.0,0.0,1.0,
819,1321.982893522959,2,0,1,580.0,0.0,125.0,61,168.9820688,29.368020353991508,1,,,,,0,1,0,0,0,0,0,0.0677450614287478,-3.024548072927246,-0.3855385203352306,-0.5501230145253826,0.1053026543768269,-4.91928599937422,-2.3766896781467053,-0.7138847379765074,0.2217663350183498,-6.719051999713489,-4.5098736782797335,-3.3226621613735428,,,,,,,,,,,,,,,1,,0.3233875723962284,0.0461586461562058,116.0,290.0,116.0,290.0,2.556,2.556,2.124,1.704,0.02,0.06,0.08,0.04,4.764,23.844,7.944,7.944,24.0,48.0,24.0,48.0,18.75,37.5,18.75,37.5,0.01,0.01,0.01,0.01,0.01,0.01,0.01,0.01,0.01,0.01,0.01,0.01,0.0,22.780487330677293,45.560974661354585,2.5599765043859644,4.106695190238511,5.361358762923038,0.0253665757193498,0.0331219292329464,458.263575575476,20.88565874960051,0.0620880195613298,1.959759489152115e-05,1,0.0,0.0,0,1.0,20.74501797552833,0.09639252876536634,0.00042071199945432767,0.0,0.0,1.0,0.0,0.0,1.0,
492,1321.982893522959,2,0,1,61.0,135.0,200.0,61,41.00234561954944,32.91147998937948,1,,,,,0,1,1,0,0,0,0,0.0765447253636996,-2.9196354270236142,-0.2953729800617274,-0.4751456919652711,0.1050215085198636,-4.480205774177438,-1.988580050060844,-0.4074583097002109,0.2159029052429735,-6.13236528503176,-3.910171954575289,-2.697943966379787,,,,,,,,,,,,,-0.5398836030209538,,0,,-1.0,1.5,12.200000000000001,30.5,12.200000000000001,30.5,0.852,4.248,2.556,2.556,0.02,0.08,0.04,0.06,1.008,0.84,0.84,1.26,24.0,48.0,24.0,48.0,9.75,19.5,9.75,19.5,0.5,0.5,0.5,0.25,0.75,0.5,0.25,0.4,0.5,0.01,0.25,0.01,0.0,22.780487330677293,45.560974661354585,2.5599765043859644,4.106695190238511,5.361358762923038,0.0253665757193498,0.0331219292329464,458.263575575476,19.188891963379376,0.0801121371069469,0.0,1,0.0,1.0,1,1.0,20.74501797552833,0.09639252876536634,0.00042071199945432767,0.0,0.0,1.0,0.0,0.0,1.0,
314,11913.367002499095,11,1,1,25.0055,0.0,160.0,62,9.999894312600176,9.999894312600176,1,60,9.999894312600176,9.999894312600176,1,0,1,0,0,1,1,1,0.065918284969968,-1.944587676328552,0.6747407814713182,0.5744262219619815,0.1074801487795849,-3.150206514803775,-0.60287312534234,1.2199149157157283,0.2343097830654797,-5.752523316110279,-3.4016157146977246,-1.6550446031983268,0.0689262122193548,-3.403547504797513,-0.7735773554113919,-0.9254232561970616,0.0974643805984109,-4.197056798760869,-1.6550188149642555,-0.043495311369057,0.12842263689943,-4.425991127579948,-2.449811575542693,-1.0601624956311633,-2.64750114726441,-2.169285500694129,0,0.0,0.0171338026032763,0.0262041743648071,137.0,342.5,137.0,342.5,2.124,2.556,0.852,5.1000000000000005,0.04,0.06,0.02,0.08,11.544,24.048000000000002,5.772,9.624,24.0,48.0,24.0,48.0,24.0,48.0,24.0,48.0,0.01,0.01,0.01,0.01,0.01,0.01,0.8,0.01,0.25,0.2,0.99,0.25,0.0,40.64727272727273,81.29454545454546,2.734057673143996,5.085928680460405,7.8049459259432306,0.0360493170929873,0.0581626556147757,757.8188728399456,16.088846754982235,0.2897882754321831,9.931160148669546e-05,1,0.0,2.0,1,0.0,19.489219370038562,0.10348240557545837,0.0005892459624384037,0.0,1.0,1.0,0.0,1.0,1.0,
338,897.8346892314378,1,1,1,60.0055,0.0,700.0,63,130.01543683593405,62.69663043868574,1,65,67.41541169270654,37.617978263211434,1,1,1,0,0,0,0,0,0.0881454140876561,-3.581498613477226,-0.8727301376547697,-1.0689239198499036,0.1245334429143489,-4.316182238492295,-1.7219820980391192,0.0641495913372682,0.2580969232987219,-7.315002273577818,-4.888941124601436,-3.08079431101979,0.0730289559658526,-3.576648695364061,-0.8763512025265653,-0.989704213703442,0.1002130867299519,-5.17455522506139,-2.454505507623602,-0.5444827221984769,0.1879735370096449,-7.012091002393133,-4.760140531603256,-3.3395422534009898,-3.268447559675601,-1.9349771860320424,0,0.0,0.1861651819684921,0.042325528630016,174.0,435.0,174.0,435.0,2.208,2.208,0.732,3.684,0.06,0.04,0.02,0.08,16.272000000000002,20.34,13.56,13.56,24.0,48.0,24.0,48.0,105.0,210.0,105.0,210.0,0.7,0.1,0.01,0.01,0.01,0.01,0.01,0.01,0.8,0.8,0.6,0.5,0.0,32.1619819391635,64.323963878327,2.235097731158449,3.4660048596689492,5.9043272610017095,0.0438750794702872,0.036731444540163,946.2708670639884,18.34579424176314,0.1652255619379824,0.0,0,0.0,0.0,0,1.0,18.180088810367447,0.08299952010681523,0.000327539308753741,1.0,1.0,1.0,1.0,1.0,1.0,
1522,1666.0411339049424,3,1,1,460.0,0.0,1200.0,64,36.17527731513735,36.17527731513735,1,67,4.644588686942074,4.644588686942074,2,0,1,0,0,0,0,1,0.0781867158002367,-3.495120782433288,-0.8039013262192073,-1.0171442229062635,0.1072678012997552,-5.065626603105948,-2.49723572594659,-0.7342106917898349,0.2402865066011435,-7.579513381367841,-5.257998307508639,-4.04134946267062,0.0835116017594228,-3.847643411811121,-1.4125264091898686,-1.4903273547448734,0.1059003530089717,-4.7250524190036405,-2.2877549736670333,-0.5262797688187927,0.1700516923130293,-5.71418482241464,-3.625926071178946,-2.3215479930295166,,,1,1.0,0.0145676897369254,0.0091140598021305,92.0,230.0,92.0,230.0,2.124,5.1000000000000005,0.852,2.556,0.08,0.02,0.04,0.06,8.16,17.004,4.08,6.804,24.0,48.0,24.0,48.0,180.0,360.0,180.0,360.0,0.5,0.5,0.5,0.01,0.5,0.5,0.5,0.5,0.9,0.9,0.9,0.9,0.0,41.06251804330393,82.12503608660786,2.8161376072168003,5.255545847748535,8.073122529569831,0.0435109906752037,0.0563232753687836,1144.9093087627477,20.096361635783435,0.0723432106665181,6.428827189301297e-05,1,0.0,4.0,1,1.0,18.422343696589962,0.11008879961505236,0.00037674610736641146,0.25,0.0,1.0,0.0,0.0,1.0,
1161,3306.360982332038,2,1,1,50.0,0.0,475.0,64,51.765972614570934,51.765972614570934,3,64,12.750239560239148,12.750239560239148,1,0,1,0,0,0,0,0,0.0617145483290496,-3.104753524450393,-0.5678447989422611,-0.3124440334361363,0.0797500632435198,-3.801595837289557,-1.4203814012746006,0.536749649206877,0.2042765687485435,-5.761500528701887,-3.5700188609978736,-2.037234890945557,0.091668190233681,-3.4530288908964257,-0.7536820265913677,-1.0979249104136015,0.113591135031015,-4.553423098043029,-1.967021264179544,-0.4073647993000833,0.2349973824296786,-7.377615457891373,-4.957431480049418,-3.763460550045495,-1.0021466645858137,-0.7489826535763867,0,0.0,1.5,1.5,15.0,37.5,15.0,37.5,1.104,3.684,0.732,4.416,0.02,0.04,0.06,0.08,1.2,3.6,0.48,1.8,24.0,48.0,24.0,48.0,71.25,142.5,71.25,142.5,0.5,0.01,0.01,0.01,0.5,0.01,0.5,0.01,0.01,0.01,0.01,0.01,0.0,22.780487330677293,45.560974661354585,2.5599765043859644,4.106695190238511,5.361358762923038,0.0253665757193498,0.0331219292329464,458.263575575476,13.550295981932225,0.5660375592186454,2.7060796082993277e-05,0,1.0,3.0,1,0.0,16.861971458118802,0.09127464954585923,0.00048668850661514695,0.0,1.0,0.0,0.0,1.0,0.0,
229,3306.360982332038,2,0,1,22.6,20.0,145.0,65,31.332259514378336,31.332259514378336,1,,,,,0,1,1,1,0,0,1,0.0858539001617105,-3.9150415476027134,-1.3111249930213833,-1.6902718020152618,0.1093710727131284,-4.797789980257904,-2.332373184969853,-0.9275782123580162,0.2237583726407536,-6.518814149713839,-4.394916814191767,-3.360156233635581,,,,,,,,,,,,,-0.2948900512449252,,0,,-0.4207227205915479,1.5,4.5200000000000005,11.3,4.5200000000000005,11.3,2.436,5.856,1.464,1.956,0.02,0.08,0.04,0.06,0.14400000000000002,0.552,0.372,1.116,24.0,48.0,24.0,48.0,25.0,50.0,25.0,50.0,0.01,0.01,0.01,0.01,0.01,0.01,0.01,0.01,0.75,0.01,0.4,0.01,0.0,22.780487330677293,45.560974661354585,2.5599765043859644,4.106695190238511,5.361358762923038,0.0253665757193498,0.0331219292329464,458.263575575476,17.040243489829397,0.0762537230168695,3.2948807918711487e-06,0,1.0,0.0,0,0.0,16.711153315543942,0.07685244377312644,0.0004755918671586365,0.0,0.0,1.0,0.0,0.0,1.0,
423,1321.982893522959,2,0,1,60.0055,0.0,275.0,67,58.905940680117034,58.905940680117034,1,,,,,1,0,0,1,0,0,0,0.0826707067813016,-3.733398770125544,-0.9989064424093332,-1.252416989886142,0.106758558673515,-5.156069962841128,-2.5583356504129675,-0.9980154988346116,0.267430869073039,-8.448673290433666,-6.132469709993515,-4.97108846232338,,,,,,,,,,,,,-2.1088359593278945,,0,,-1.0,0.9438456226230524,132.0,330.0,132.0,330.0,2.7840000000000003,2.22,3.336,3.336,0.06,0.04,0.02,0.08,10.572000000000001,31.716,6.348,10.572000000000001,24.0,48.0,24.0,48.0,55.0,110.0,55.0,110.0,0.01,0.01,0.01,0.01,0.01,0.01,0.01,0.01,0.01,0.01,0.01,0.01,0.0,22.780487330677293,45.560974661354585,2.5599765043859644,4.106695190238511,5.361358762923038,0.0253665757193498,0.0331219292329464,458.263575575476,18.620032372488435,0.074082119625084,0.0003990805896448,1,0.0,0.0,0,1.0,16.750114576986952,0.11057572623512782,0.00019092961705503104,0.75,0.0,1.0,0.0,0.0,1.0,
357,3922.948378218528,6,1,1,275.0,0.0,650.0,66,44.986858393971055,44.986858393971055,1,67,18.581528467075,18.581528467075,1,1,1,0,0,0,0,1,0.0823745476289031,-3.7152461957845713,-1.0066307989738217,-1.2633317472414554,0.1134066515614988,-4.850994250889944,-2.1987454567954714,-0.7707791958851479,0.2280698791123429,-6.400913816554288,-4.126566714237671,-2.9750672420023805,0.07480009745382,-3.1919354488301,-0.4297965212251667,-0.650827158529674,0.1052993540521203,-4.78417000957236,-2.1752819178816587,-0.4335727544163544,0.1977887740070127,-6.688771069655908,-4.349381014077846,-3.012526340879363,-3.329685689564429,-2.4440098106866355,0,0.0,0.1522457769729855,0.5876735480710291,85.0,212.5,85.0,212.5,2.436,2.928,0.972,5.856,0.08,0.02,0.06,0.04,2.868,21.504,4.296,17.928,24.0,48.0,24.0,48.0,130.0,260.0,130.0,260.0,0.01,0.01,0.01,0.01,0.01,0.01,0.01,0.01,0.01,0.01,0.01,0.01,0.0,24.936924647364513,49.87384929472903,2.536366587941094,5.239878687317201,8.900934583201554,0.026107100346319,0.0254617632609707,506.90885363048835,15.459191310172264,0.076826661155645,0.0002106199924851,0,1.0,3.0,1,0.0,15.698780185578718,0.09685849446736142,0.0004563119380560841,1.0,1.0,1.0,0.75,1.0,1.0,
682,8497.513381368772,1,0,1,91.0,220.0,900.0,65,69.40170884406265,69.40170884406265,1,,,,,1,1,1,0,0,0,0,0.053369223485251,-2.014449204046975,0.5160612280062413,0.5165557627801146,0.0719755339035391,-3.141613504201968,-0.6698092466958004,1.0921556060937427,0.160665486479091,-3.909902558897517,-1.7826077267089813,-0.4603358844640255,,,,,,,,,,,,,-1.5167595092694128,,0,,0.1861651819684921,0.042325528630016,43.2,108.0,43.2,108.0,2.7840000000000003,6.672,1.116,3.336,0.04,0.02,0.06,0.08,3.2640000000000002,4.908,3.924,3.2640000000000002,24.0,48.0,24.0,48.0,136.0,272.0,136.0,272.0,0.01,0.01,0.1,0.01,0.01,0.01,0.1,0.01,0.01,0.01,0.01,0.01,0.0,32.1619819391635,64.323963878327,2.235097731158449,3.4660048596689492,5.9043272610017095,0.0438750794702872,0.036731444540163,946.2708670639884,11.185849218884218,0.1616553381071236,0.0,1,0.0,1.0,1,0.0,17.60203212252335,0.106325169514276,0.00033087298198480907,0.0,1.0,1.0,0.0,1.0,1.0,
104,1278.4983244321725,1,0,1,0.0,247.0,600.0,66,38.815161152906406,38.815161152906406,1,,,,,1,1,1,1,0,0,0,0.0839199301717345,-3.758437797049455,-1.036452770426246,-1.255180965137636,0.1134161939109133,-5.295999977008977,-2.675362814743844,-0.9377494611642964,0.2678026716458093,-8.21301776774583,-5.896433463875219,-4.609756281422343,,,,,,,,,,,,,-0.5451981181521359,,0,,-0.0193653482733034,0.577521882156905,8.0,20.0,8.0,20.0,1.116,6.672,1.668,5.5680000000000005,0.02,0.04,0.08,0.06,0.372,1.872,0.252,1.56,24.0,48.0,24.0,48.0,70.60000000000001,141.20000000000002,70.60000000000001,141.20000000000002,0.01,0.01,0.01,0.01,0.25,0.01,0.01,0.01,0.45,0.2,0.01,0.01,0.0,32.1619819391635,64.323963878327,2.235097731158449,3.4660048596689492,5.9043272610017095,0.0438750794702872,0.036731444540163,946.2708670639884,18.686542004325517,0.0679249813486605,0.0,1,0.0,2.0,1,1.0,16.882965937583535,0.13800724551416013,0.00040831085282485224,0.0,0.0,1.0,0.0,0.0,1.0,
322,4942.474513256949,7,1,1,10.0,0.0,600.0,67,36.73478866201601,36.73478866201601,2,64,8.551149625175078,8.551149625175078,1,1,0,0,0,0,0,0,0.0722494870340858,-3.103904722255687,-0.4423471400402783,-0.458973273683635,0.090976483344341,-3.685883078905603,-1.1651646521995382,0.5072180755095406,0.2326898543007213,-6.010205396637216,-3.574451437644403,-2.298936531050388,0.0838561939607967,-3.4095685354941168,-0.724659602537275,-0.9125877017948816,0.1097389168750885,-4.5501167230542805,-1.97682020336389,-0.2123441241013978,0.2045049372349241,-6.9109235617034726,-4.5596206170111575,-3.1350163388925365,0.6336751127965492,-0.3989143699096353,0,0.0,0.3237042053207337,0.665056743880054,2.0,5.0,2.0,5.0,1.464,4.884,0.972,5.856,0.08,0.06,0.04,0.02,0.07200000000000001,0.264,0.20400000000000001,0.432,24.0,48.0,24.0,48.0,120.0,240.0,120.0,240.0,0.01,0.01,0.01,0.01,0.01,0.01,0.01,0.01,0.01,0.01,0.01,0.01,0.0,22.588588178913746,45.17717635782749,2.5323437587719293,4.062366946087904,5.303487504109683,0.0429280377108032,0.0337495491155457,400.1858597446627,11.401844539373377,0.2909875472988888,0.0,0,0.0,2.0,1,0.0,15.121193464023477,0.09233475559302456,0.00030754784766514546,0.0,1.0,1.0,0.0,1.0,1.0,
518,4942.474513256949,1,0,1,85.0,0.0,750.0,66,119.2859251,67.44288005196104,1,,,,,1,1,1,0,0,0,1,0.0604642545191215,-3.161687483907688,-0.4573419686348673,-0.7655584636852818,0.0992586647485959,-4.249747285120201,-1.5857497341061446,-0.2336770146197026,0.1980241537508795,-5.330276341890057,-3.1681941380724243,-1.969379334004632,,,,,,,,,,,,,-1.0180308329719456,,0,,0.0382605498073182,0.5864226287480241,17.0,42.5,17.0,42.5,0.972,4.884,2.928,2.928,0.02,0.04,0.08,0.06,1.428,1.428,0.864,4.296,24.0,48.0,24.0,48.0,150.0,300.0,150.0,300.0,0.01,0.01,0.01,0.01,0.01,0.01,0.01,0.01,0.01,0.01,0.01,0.01,0.0,32.1619819391635,64.323963878327,2.235097731158449,3.4660048596689492,5.9043272610017095,0.0438750794702872,0.036731444540163,946.2708670639884,13.46509468264118,0.1001213591656014,0.0,0,0.0,0.0,0,0.0,15.698780185578718,0.09685849446736142,0.0004563119380560841,0.0,0.0,1.0,0.0,0.0,1.0,
539,967.2736886617232,9,0,1,627.0,0.0,450.0,69,41.948415006358005,41.948415006358005,1,,,,,0,1,0,0,0,0,0,0.0769209279855601,-4.095312758908364,-1.3525025205706735,-1.6801965869064026,0.104198170568535,-5.163537636306283,-2.5206773191649305,-1.1917009798369949,0.2376144354116224,-7.338694736239865,-5.168978040485923,-4.1619455334691215,,,,,,,,,,,,,-2.51458836944645,,0,,-0.4154703217464605,1.5,205.4,513.5,205.4,513.5,2.436,2.928,0.972,5.856,0.08,0.04,0.06,0.02,19.104,57.312000000000005,7.644,28.656000000000002,24.0,48.0,24.0,48.0,90.0,180.0,90.0,180.0,0.01,0.01,0.01,0.01,0.01,0.1,0.01,0.01,0.01,0.01,0.01,0.01,0.0,31.207843260188085,62.41568652037617,2.5829861998215877,4.986204803302457,8.364567309034976,0.0256857908664062,0.0390059031342407,408.1596769784491,15.773532923264764,0.0651009742821148,0.0004124922364305,0,0.0,1.0,1,1.0,13.99234977104385,0.09594660334871877,0.00038075079316306107,1.0,0.0,1.0,1.0,0.0,0.0,
41,4942.474513256949,1,1,1,350.0,0.0,560.0,67,68.23431331413501,68.23431331413501,1,64,11.125159779478533,11.125159779478533,1,0,0,0,0,0,1,1,0.093582257177521,-4.013607446906444,-1.3507385172177386,-1.4531917369015674,0.1182211484848295,-4.736997508712779,-2.1140676004420467,-0.4815007208122519,0.2351276764909985,-6.257283146893554,-4.087718488201664,-2.6266396214330947,0.0886673164621114,-3.463204147519748,-0.8554944581537496,-0.9112987991148008,0.1162081837836259,-4.715467598373782,-2.088856476265864,-0.3377151348775067,0.2102942309406114,-6.990615121350982,-4.68540127917071,-3.238049601069638,-0.8133816138317329,0.3576351526316028,0,0.0,-1.0,0.5461880680634045,170.0,425.0,170.0,425.0,0.972,2.928,2.436,5.856,0.08,0.02,0.04,0.06,17.748,36.96,8.868,14.784,24.0,48.0,24.0,48.0,112.0,224.0,112.0,224.0,0.01,0.01,0.01,0.01,0.01,0.01,0.01,0.01,0.01,0.01,0.01,0.01,0.0,32.1619819391635,64.323963878327,2.235097731158449,3.4660048596689492,5.9043272610017095,0.0438750794702872,0.036731444540163,946.2708670639884,13.827745111479382,0.0890328135353259,0.0,0,0.0,3.0,1,0.0,15.121193464023477,0.09233475559302456,0.00030754784766514546,0.0,0.0,1.0,0.0,0.0,1.0,
793,4942.474513256949,6,1,1,370.0,0.0,500.0,69,43.594230521917275,43.594230521917275,1,67,47.61006198406698,47.61006198406698,1,0,0,0,0,0,0,0,0.0931945625202016,-3.644400538506583,-0.9235143793521232,-1.229376336678962,0.1153661839074559,-4.202982851311116,-1.55258043674961,-0.1663718686779636,0.2687723069636418,-6.447411687530632,-4.047680896769988,-2.812579854139303,0.0731111419994576,-3.1532153410673733,-0.4260277434933409,-0.6539406252466119,0.1046699663426194,-4.844098529031711,-2.20425106154192,-0.448420432104302,0.1919164463412612,-6.520490472125181,-4.175913109579498,-2.8953772366955906,,,1,1.0,0.7088840640515756,0.2749288802812688,82.0,205.0,82.0,205.0,0.972,4.884,1.464,5.856,0.08,0.04,0.06,0.02,3.048,19.068,9.156,11.436,24.0,48.0,24.0,48.0,100.0,200.0,100.0,200.0,0.01,0.01,0.01,0.01,0.01,0.01,0.01,0.01,0.01,0.01,0.01,0.01,0.0,24.936924647364513,49.87384929472903,2.536366587941094,5.239878687317201,8.900934583201554,0.026107100346319,0.0254617632609707,506.90885363048835,10.999772123931976,0.1304715274825772,0.0,0,0.0,2.0,1,0.0,13.99234977104385,0.09594660334871877,0.00038075079316306107,0.0,0.0,1.0,0.0,0.0,1.0,
424,2740.425636006952,10,1,1,353.91623097776227,0.0,250.0,65,11.161472172787581,11.161472172787581,1,70,97.02826074917505,97.02826074917505,1,0,0,1,0,0,0,0,0.0888661145448762,-3.721258548036494,-1.1266503903113605,-1.2873240452261323,0.1114226534008815,-5.401427142673113,-2.7604864302265133,-1.219174625026065,0.2367230582676764,-7.16919956017028,-4.9662655901270085,-3.889672680326594,0.0861924212792108,-4.359912287901832,-1.669591552554591,-1.9992812790350192,0.108450321441113,-5.378427861616614,-2.7226181003740964,-1.2703263719273243,0.2199705214800995,-6.7188321017274495,-4.623704943341417,-3.697403702478682,-2.666979787408304,-2.6855594157100966,0,0.0,0.4275119034743994,0.3541816255803826,130.0,325.0,130.0,325.0,2.7840000000000003,6.672,1.116,3.336,0.02,0.08,0.06,0.04,11.808,24.6,3.936,14.76,24.0,48.0,24.0,48.0,50.0,100.0,50.0,100.0,0.1,0.01,0.1,0.01,0.01,0.01,0.01,0.01,0.01,0.01,0.01,0.01,0.0,41.39015444015444,82.78030888030888,2.3336076037480025,5.1821760625230135,9.658244768779062,0.0189251467931155,0.025284283298686,311.31759594053744,18.45048303634601,0.0501207353013296,0.0040564907491242,1,0.0,0.0,0,1.0,17.60203212252335,0.106325169514276,0.00033087298198480907,0.25,0.0,1.0,0.0,0.0,1.0,
593,897.8346892314378,1,1,1,475.0,0.0,700.0,69,52.98926009566007,52.98926009566007,1,69,52.98926009566007,52.98926009566007,1,1,0,0,0,1,0,0,0.0863718330121545,-4.290436911490566,-1.7352586118187132,-1.989703033307079,0.1225173352345032,-5.392750474540804,-2.956681580283969,-1.438865656928202,0.2391774462055205,-6.772282960731878,-4.768951276492722,-3.552309305068591,0.0786385054796969,-3.44259036071831,-0.7250681652911909,-0.87495032356795,0.102295699670754,-4.877190857643746,-2.18539251780641,-0.3889088768882447,0.2182601162935533,-7.707805314788569,-5.320546216198583,-3.936598608345655,-0.2824856741389974,-0.0638357900071789,0,0.0,-1.0,0.5461880680634045,115.0,287.5,115.0,287.5,2.928,2.928,0.972,4.884,0.04,0.08,0.02,0.06,10.692,32.088,6.42,10.692,24.0,48.0,24.0,48.0,140.0,280.0,140.0,280.0,0.5,0.5,0.5,0.5,0.01,0.01,0.01,0.01,0.01,0.01,0.01,0.01,0.0,32.1619819391635,64.323963878327,2.235097731158449,3.4660048596689492,5.9043272610017095,0.0438750794702872,0.036731444540163,946.2708670639884,13.912404719592358,0.0568406178173537,0.0,0,0.0,0.0,0,1.0,13.99234977104385,0.09594660334871877,0.00038075079316306107,0.0,0.0,1.0,0.0,0.0,1.0,
1474,1278.4983244321725,1,0,1,75.0,0.0,1300.0,65,60.80978904576364,60.80978904576364,1,,,,,0,1,1,0,0,0,1,0.0836932867956681,-3.755240510031317,-1.089759295349554,-1.1257363327437604,0.1116797386368567,-5.256115635913034,-2.76142393504922,-0.8788436372375953,0.2603093785846742,-8.018405539668635,-5.799950041914315,-4.317880834332483,,,,,,,,,,,,,-1.6564134651537294,,0,,0.7992758770342058,0.7886779985627503,23.0,57.5,23.0,57.5,2.7840000000000003,6.672,1.116,3.336,0.08,0.06,0.02,0.04,1.74,1.74,1.044,5.22,24.0,48.0,24.0,48.0,260.0,520.0,260.0,520.0,0.1,0.01,0.1,0.01,0.95,0.5,0.99,0.95,0.01,0.01,0.75,0.5,0.0,32.1619819391635,64.323963878327,2.235097731158449,3.4660048596689492,5.9043272610017095,0.0438750794702872,0.036731444540163,946.2708670639884,19.40396740885883,0.0625004211276304,0.0,1,0.0,0.0,0,1.0,17.60203212252335,0.106325169514276,0.00033087298198480907,0.0,0.0,0.0,0.0,0.0,0.0,
52,967.2736886617232,9,0,1,85.0055,0.0,225.0,69,59.51458315609537,59.51458315609537,1,,,,,0,1,1,0,1,0,0,0.0750341354554373,-3.8298047689312416,-1.1938024664595337,-1.529757566314124,0.111244551782412,-5.077688054819957,-2.697062048889888,-1.2816952413528744,0.237177452165243,-6.85365218166532,-4.778754624749902,-3.6539219798653977,,,,,,,,,,,,,0.8540550913457925,,0,,-0.4154703217464605,1.5,277.0,692.5,277.0,692.5,0.972,4.884,2.928,2.928,0.04,0.06,0.08,0.02,15.456,77.292,10.308,64.416,24.0,48.0,24.0,48.0,45.0,90.0,45.0,90.0,0.2,0.4,0.01,0.4,0.4,0.3,0.4,0.4,0.2,0.2,0.1,0.5,0.0,31.207843260188085,62.41568652037617,2.5829861998215877,4.986204803302457,8.364567309034976,0.0256857908664062,0.0390059031342407,408.1596769784491,14.198421485293268,0.0645485596247409,0.0,0,0.0,2.0,1,1.0,13.99234977104385,0.09594660334871877,0.00038075079316306107,0.0,0.0,1.0,0.0,0.0,1.0,
1247,6226.779569658952,2,1,1,65.0055,0.0,500.0,69,41.13129983712372,41.13129983712372,1,63,77.85567469169847,77.85567469169847,1,1,1,0,0,1,0,0,0.0855833939282307,-3.9213186603556007,-1.226753883712228,-1.4983435029431085,0.1175253213629441,-4.685130734392862,-2.1562769087843128,-0.7038626273789429,0.2467327804901471,-6.769313142825391,-4.412650835363978,-3.2451972553074726,0.074105360143432,-3.3402765483437844,-0.5973032050104715,-0.9129488242675258,0.1057923571982476,-5.044319848239413,-2.4561691868318967,-0.701129908161452,0.1945734600404956,-6.535975850537922,-4.281847998226745,-3.056321198680231,-3.3907568999803965,-2.511270844088429,0,0.0,1.5,1.5,183.0,457.5,183.0,457.5,2.436,5.856,1.464,1.956,0.04,0.02,0.08,0.06,17.016000000000002,25.536,6.804,51.06,24.0,48.0,24.0,48.0,100.0,200.0,100.0,200.0,0.01,0.01,0.01,0.01,0.5,0.01,0.5,0.5,0.01,0.01,0.01,0.01,0.0,22.780487330677293,45.560974661354585,2.5599765043859644,4.106695190238511,5.361358762923038,0.0253665757193498,0.0331219292329464,458.263575575476,13.107321790804994,0.1037003654430724,0.0005076897564714,0,0.0,3.0,1,0.0,13.99234977104385,0.09594660334871877,0.00038075079316306107,0.0,1.0,0.0,0.0,1.0,0.0,
1457,967.2736886617232,2,1,1,325.0,0.0,425.0,60,87.5589058436994,62.57715469881291,1,60,36.48287743487475,38.15680164561763,1,1,1,1,0,0,0,0,0.0759315641726185,-3.9577016819164377,-1.332450137574589,-1.7746666532348645,0.1041193320525503,-4.917345679739721,-2.5098934187620463,-1.1432474111106616,0.1875784576223581,-5.794778193532777,-3.807226367259928,-2.74455217900152,0.0761228987087346,-3.5243884400388668,-0.8107372413653814,-1.0180230390144192,0.1009724321499668,-4.982250767314617,-2.455246438815869,-0.7338385446804024,0.2008066433224593,-7.067750568588796,-4.854278200820234,-3.556920826032382,-3.0641485390983045,-2.1307586801834804,0,0.0,0.4735476362487229,0.8943364441357567,83.0,207.5,83.0,207.5,0.732,3.684,1.104,4.416,0.08,0.02,0.04,0.06,3.576,17.892,5.964,5.964,24.0,48.0,24.0,48.0,63.75,127.5,63.75,127.5,0.99,0.99,0.99,0.99,0.99,0.99,0.99,0.5,0.5,0.5,0.5,0.5,0.0,22.780487330677293,45.560974661354585,2.5599765043859644,4.106695190238511,5.361358762923038,0.0253665757193498,0.0331219292329464,458.263575575476,20.690509968490517,0.048336793180775,0.0108109197161526,0,0.0,2.0,1,1.0,20.1966503403674,0.08130024967555968,0.0007439175162698796,0.25,0.0,1.0,0.0,0.0,1.0,
495,4230.715283026676,6,1,1,16.63135804501979,250.0,450.0,61,56.251356561078715,56.251356561078715,1,63,39.70683992546732,39.70683992546732,2,0,0,0,1,0,0,0,0.083449683637357,-3.4442675367790234,-0.769005828650515,-0.8762953973039587,0.1045810746430205,-4.77293790539914,-2.228429130519948,-0.4882595702533345,0.2592229197541003,-7.795025880526127,-5.499841232631492,-4.165705076091428,0.0818916461247156,-3.771999083874232,-1.1019624472084266,-1.2674918028490112,0.1098918976703597,-4.472288265706737,-1.978088718430585,-0.2981737323223991,0.1598870272415803,-5.253325039944031,-3.1039659664614576,-1.8045347376436485,-2.6034036514260785,-0.4773470125702167,0,0.0,0.4738583594931179,0.0807967568676211,9.0,22.5,9.0,22.5,0.852,5.1000000000000005,2.124,2.556,0.02,0.08,0.06,0.04,0.612,0.612,0.372,1.848,24.0,48.0,24.0,48.0,30.0,60.0,30.0,60.0,0.01,0.01,0.01,0.01,0.8,0.01,0.01,0.75,0.01,0.01,0.01,0.01,0.0,24.936924647364513,49.87384929472903,2.536366587941094,5.239878687317201,8.900934583201554,0.026107100346319,0.0254617632609707,506.90885363048835,21.862749528637018,0.0763701694370448,0.0,1,1.0,0.0,0,0.0,20.74501797552833,0.09639252876536634,0.00042071199945432767,0.0,0.0,1.0,0.0,0.0,1.0,
1296,4942.474513256949,7,1,1,250.0,0.0,600.0,64,18.5,18.5,1,64,6.0,6.0,1,0,0,0,0,0,0,0,0.0692416220504829,-3.123280138746748,-0.5615735990114767,-0.5287918928581901,0.0885130545397861,-3.6554225001807694,-1.1025920886952358,0.5549598360082704,0.1816103773973927,-4.626399437082873,-2.592239187771396,-1.1069716422218991,0.0836294055142095,-2.968742947899764,-0.3012348952451698,-0.5870979327968796,0.1188245733408783,-4.259300954399503,-1.6300723983465302,0.0333766786705481,0.1790475943314761,-5.336708181629729,-3.033099020959216,-1.6913468637296558,-1.7160690292280858,-1.1233442148167343,0,0.0,-1.0,0.7297765427925295,95.0,237.5,95.0,237.5,1.104,4.416,0.732,3.684,0.04,0.02,0.06,0.08,7.596,7.596,9.120000000000001,11.4,24.0,48.0,24.0,48.0,90.0,180.0,90.0,180.0,0.05,0.01,0.25,0.05,0.5,0.2,0.65,0.4,0.1,0.1,0.1,0.05,0.0,22.588588178913746,45.17717635782749,2.5323437587719293,4.062366946087904,5.303487504109683,0.0429280377108032,0.0337495491155457,400.1858597446627,13.177836857310366,0.1348956852392541,0.0,0,0.0,0.0,0,0.0,16.861971458118802,0.09127464954585923,0.00048668850661514695,0.5,1.0,1.0,0.0,1.0,1.0,
989,3922.948378218528,6,1,1,300.0,0.0,615.0,62,78.51319920250273,56.51031964274392,1,63,0.0,0.0,1,0,1,1,0,0,0,0,0.0849686880446391,-4.072452547763397,-1.3508929832290315,-1.6271843793337792,0.1061591633056754,-4.883105532959884,-2.1748244435654858,-0.6742567125953083,0.2201016854420379,-6.731777534797255,-4.518535444905361,-3.273770766690268,0.0722130027619674,-3.562420638798864,-0.8700185745637252,-0.9294922925707504,0.0956845435725138,-5.0219153920481805,-2.359806052091954,-0.464918141932961,0.1773383056400432,-6.736932740809013,-4.516552041064151,-3.0612283175191752,-0.4072629869691156,0.0168476467410713,0,0.0,1.1869928117230737,1.5,60.0,150.0,60.0,150.0,1.104,1.476,2.208,3.684,0.02,0.08,0.06,0.04,1.824,6.816,4.548,13.632,24.0,48.0,24.0,48.0,92.25,184.5,92.25,184.5,0.2,0.1,0.1,0.05,0.15,0.2,0.1,0.05,0.1,0.05,0.07,0.2,0.0,24.936924647364513,49.87384929472903,2.536366587941094,5.239878687317201,8.900934583201554,0.026107100346319,0.0254617632609707,506.90885363048835,20.245446726356203,0.0698504085416748,1.2077207471982102e-05,0,1.0,0.0,0,0.0,18.9349187337184,0.08318727456763397,0.0005606369111209724,0.0,0.0,0.0,0.0,0.0,0.0,
604,3653.671297737253,8,1,1,330.0,0.0,400.0,69,26.81603210728284,26.81603210728284,1,63,44.952729515754605,44.952729515754605,1,0,1,0,1,0,0,0,0.0869669186477377,-3.546115817469844,-0.8256537641285179,-0.9908674391189176,0.1159835060354095,-5.044186640173622,-2.4541355298945304,-0.8105747920016417,0.2964967138532019,-8.902188162504318,-6.392711674973371,-5.119033347237755,0.091507281285846,-3.9990997307223566,-1.3727758672874977,-1.620277901516898,0.1121436125548238,-4.548461889518013,-1.8781812827009667,-0.4130821666330846,0.1739249983156168,-5.635898041750713,-3.508572776320246,-2.196174626071114,0.4937491810433912,-0.2468212116672686,0,0.0,0.0576911393226355,1.2342481720628016,66.0,165.0,66.0,165.0,2.7840000000000003,2.22,1.668,6.672,0.04,0.08,0.06,0.02,2.232,8.376,6.708,13.968,24.0,48.0,24.0,48.0,80.0,160.0,80.0,160.0,0.01,0.01,0.01,0.01,0.01,0.01,0.01,0.01,0.01,0.01,0.01,0.01,0.0,32.09742370955316,64.19484741910632,2.1998430747922435,3.4203056840352795,5.829138756586768,0.0281543378617289,0.0424875023147554,664.7986287229243,16.225180935685035,0.0976155245768611,0.0002297145182883,1,1.0,2.0,1,0.0,14.882781132501421,0.11566076031761527,9.726445745082914e-05,0.0,0.0,1.0,0.0,0.0,1.0,
1293,4230.715283026676,1,1,1,175.0055,0.0,800.0,70,34.62094769259948,34.62094769259948,1,67,15.002410666793105,15.002410666793105,1,0,1,1,0,0,1,1,0.0859807532942825,-3.5273329599582555,-0.8038331884215814,-1.0372451406958203,0.1152231320303965,-5.051120516073811,-2.369338562203552,-0.8407848050635334,0.2922859536271038,-8.740821468797096,-6.268378775466419,-5.039878293261664,0.085769135101078,-3.897823278421997,-1.293707252544107,-1.374551243897887,0.111672605683828,-4.634812180269201,-2.055855520392972,-0.3996391947952505,0.1857401806099555,-6.201990848873126,-4.071844332996076,-2.6185585933149307,-1.6510539509892304,-1.9370358744547724,0,0.0,0.0905913916725269,0.407376240359518,235.0,587.5,235.0,587.5,1.116,6.672,2.7840000000000003,3.336,0.04,0.06,0.08,0.02,12.132,60.648,8.088000000000001,50.544000000000004,24.0,48.0,24.0,48.0,160.0,320.0,160.0,320.0,0.01,0.01,0.01,0.3,0.3,0.01,0.01,0.01,0.01,0.01,0.01,0.01,0.0,32.1619819391635,64.323963878327,2.235097731158449,3.4660048596689492,5.9043272610017095,0.0438750794702872,0.036731444540163,946.2708670639884,15.29790520916726,0.1010581516043278,0.0,1,1.0,1.0,1,0.0,14.415924655883215,0.10410176266257254,0.0001867667746162792,0.25,0.0,1.0,0.0,0.0,1.0,
379,1321.982893522959,2,0,1,262.0,0.0,420.0,70,44.063388523627516,44.063388523627516,1,,,,,0,0,0,0,1,1,1,0.0762389047861007,-3.594585125544743,-0.8587300591089736,-1.087459968116484,0.101023008469114,-5.036970976563903,-2.430099235193944,-0.7999533646415501,0.2731698294606651,-8.649454073775724,-6.29026083792673,-5.019587076378832,,,,,,,,,,,,,-0.5187847443755423,,0,,-1.0,1.5,52.4,131.0,52.4,131.0,2.7840000000000003,3.336,3.336,2.22,0.06,0.02,0.08,0.04,5.412,4.5120000000000005,2.7,11.268,24.0,48.0,24.0,48.0,84.0,168.0,84.0,168.0,0.01,0.01,0.01,0.01,0.01,0.01,0.01,0.01,0.01,0.01,0.01,0.01,0.0,22.780487330677293,45.560974661354585,2.5599765043859644,4.106695190238511,5.361358762923038,0.0253665757193498,0.0331219292329464,458.263575575476,16.301125051904044,0.0838352312806821,4.051752197016004e-05,1,0.0,2.0,1,1.0,14.415924655883215,0.10410176266257254,0.0001867667746162792,0.0,0.0,1.0,0.0,0.0,1.0,
74,949.5838434120576,3,1,1,12.0055,0.0,2000.0,63,42.01197412416943,47.23569229170755,1,60,67.21915859867109,9.44713845834151,1,0,0,1,1,0,0,0,0.0797977217612826,-4.155889490928733,-1.526187703634848,-1.615741169650088,0.1003826119792682,-5.041933746248987,-2.4287372572947628,-0.7949213791004187,0.1846522988718117,-6.148547670153572,-4.183815295556413,-2.863682520333651,0.0756159944736295,-3.3983335515859743,-0.7011135914323082,-0.7338704588157483,0.1070977656954514,-5.135578938934148,-2.5288456258088927,-0.7251644189382223,0.2118854977010373,-7.080471805219405,-4.753994465994093,-3.4528793578468235,-1.113800737473846,-0.8354847545287688,0,0.0,0.114387841468263,0.3920546010456929,242.4,606.0,242.4,606.0,2.208,2.208,0.732,3.684,0.06,0.04,0.02,0.08,22.68,28.344,7.5600000000000005,47.232,24.0,48.0,24.0,48.0,300.0,600.0,300.0,600.0,0.1,0.1,0.1,0.1,0.1,0.1,0.1,0.1,0.01,0.01,0.01,0.01,0.0,41.06251804330393,82.12503608660786,2.8161376072168003,5.255545847748535,8.073122529569831,0.0435109906752037,0.0563232753687836,1144.9093087627477,20.086742187501624,0.060345843855512,0.0003891467829674,0,0.0,2.0,1,1.0,18.180088810367447,0.08299952010681523,0.000327539308753741,0.5,0.0,1.0,0.0,0.0,1.0,
777,967.2736886617232,2,1,1,600.0,0.0,450.0,68,51.303337791680704,51.303337791680704,1,65,35.73761920473113,35.73761920473113,1,0,1,1,0,1,0,0,0.0870699714430294,-4.440209791298055,-1.827568678347834,-2.22028760806992,0.1045441478263811,-5.0877646488239385,-2.6116832045245024,-1.2307741051882055,0.2345168728274432,-7.330077342358591,-5.2518729436699765,-4.134310563295519,0.0759814911575567,-3.57544953254301,-0.8421794885410214,-1.0965708324072727,0.1048780601963473,-5.1492783440136565,-2.5750786451440577,-0.9029168985246367,0.211383548092188,-7.391620270725943,-5.128758407721462,-3.943732668731137,-2.4846321168028624,-1.9969367535989508,0,0.0,0.5242476307992163,0.7236699290951364,120.0,300.0,120.0,300.0,2.436,1.956,2.928,2.928,0.04,0.06,0.02,0.08,10.776,32.316,4.308,16.152,24.0,48.0,24.0,48.0,90.0,180.0,90.0,180.0,0.1,0.25,0.01,0.01,0.01,0.01,0.01,0.01,0.2,0.1,0.75,0.01,0.0,22.780487330677293,45.560974661354585,2.5599765043859644,4.106695190238511,5.361358762923038,0.0253665757193498,0.0331219292329464,458.263575575476,16.737460365424024,0.0662949229679036,0.0007621019348356,0,0.0,0.0,0,1.0,14.218084462965704,0.10230581503793665,0.0004778916861401938,1.0,0.0,1.0,0.75,0.0,1.0,
618,4942.474513256949,1,0,1,58.0055,2.4,800.0,66,78.30041316091675,78.30041316091675,1,,,,,0,0,1,0,0,0,0,0.0881055154718017,-3.995533927331932,-1.2961914947547288,-1.4708461425877153,0.1133981479014259,-4.62752672001156,-2.004437213421065,-0.4615881714961491,0.2356825288963171,-6.666173746821972,-4.402997173910338,-3.07904047356812,,,,,,,,,,,,,-1.7292107019280891,,0,,0.4084218591228352,0.8199688455750074,127.60000000000001,319.0,127.60000000000001,319.0,1.464,5.856,2.436,1.956,0.06,0.04,0.08,0.02,10.764,10.764,12.912,16.14,24.0,48.0,24.0,48.0,159.52,319.04,159.52,319.04,0.9,0.5,0.99,0.6,0.5,0.01,0.1,0.5,0.01,0.5,0.01,0.9,0.0,32.1619819391635,64.323963878327,2.235097731158449,3.4660048596689492,5.9043272610017095,0.0438750794702872,0.036731444540163,946.2708670639884,15.80402768775178,0.102960821948911,0.0,0,0.0,2.0,1,0.0,15.698780185578718,0.09685849446736142,0.0004563119380560841,0.0,0.0,1.0,0.0,0.0,1.0,
597,688.7628253365825,5,1,1,425.0,0.0,650.0,65,66.86864949880992,66.86864949880992,1,63,4.127694413506785,4.127694413506785,1,0,0,0,1,0,0,0,0.0806555406987839,-4.2876212032163865,-1.6091200420766891,-1.7999145151181413,0.10760357630471,-5.131887607817535,-2.6238738734218896,-1.1242796080140156,0.2056835625927544,-6.492503162741893,-4.525023614343552,-3.1632813694290047,0.0761184256261695,-3.351689848676408,-0.6414341185002816,-0.8873526281371422,0.1101384195072632,-5.003579006995277,-2.448423564228924,-0.6596638603295901,0.1821474100660285,-6.092401650439674,-3.839323696456844,-2.528799552549785,0.0685492012950014,0.0371610209196061,0,0.0,0.1106238249860068,0.2988908426639242,85.0,212.5,85.0,212.5,2.928,1.956,2.436,2.928,0.02,0.06,0.04,0.08,4.176,17.412,2.7840000000000003,20.904,24.0,48.0,24.0,48.0,130.0,260.0,130.0,260.0,0.01,0.01,0.01,0.01,0.05,0.05,0.01,0.01,0.01,0.01,0.01,0.01,0.0,32.031151990632324,64.06230398126465,2.1646502144932884,3.3744944371027596,5.753697696170352,0.0358802014094379,0.0857260427109676,509.9286737055783,18.26006772299729,0.0577782331144231,0.0010387940716057,0,0.0,5.0,1,1.0,16.711153315543942,0.07685244377312644,0.0004755918671586365,0.0,0.0,1.0,0.0,0.0,1.0,
136,8497.513381368772,1,1,1,170.0,0.0,500.0,66,54.490169842156654,54.490169842156654,1,69,31.772514408049712,31.772514408049712,2,1,0,0,1,0,0,0,0.0753052301413329,-3.062788889409915,-0.3941089410262183,-0.5606858584455928,0.1065925826059491,-4.480124102432551,-1.8680094598139323,-0.2463162672129252,0.2427753365915946,-6.957666526945258,-4.622705880816404,-3.321364783950179,0.0585408793049378,-3.250880539484034,-0.6164949111393468,-0.6510082355980428,0.0968760044368507,-4.446881127560734,-1.8812370015991948,-0.1130437835208839,0.1958395452982603,-6.565397439991386,-4.3898677247275,-3.045215696632014,-1.2919997727458343,0.0836559498401037,0,0.0,0.1861651819684921,0.042325528630016,42.0,105.0,42.0,105.0,3.336,3.336,1.116,5.5680000000000005,0.02,0.04,0.06,0.08,1.308,9.804,3.2640000000000002,4.896,24.0,48.0,24.0,48.0,100.0,200.0,100.0,200.0,0.01,0.01,0.01,0.01,0.01,0.01,0.01,0.01,0.01,0.01,0.01,0.01,0.0,32.1619819391635,64.323963878327,2.235097731158449,3.4660048596689492,5.9043272610017095,0.0438750794702872,0.036731444540163,946.2708670639884,16.27717472018342,0.1154995251729632,0.0,1,0.0,3.0,1,0.0,16.882965937583535,0.13800724551416013,0.00040831085282485224,0.0,0.0,1.0,0.0,0.0,1.0,
265,8497.513381368772,6,1,1,280.0,0.0,225.0,68,27.0133736385734,27.0133736385734,2,70,55.27488995351652,55.27488995351652,1,0,1,0,1,0,0,0,0.0812095833660629,-2.6586297861927712,0.0428632577946123,-0.1426140335268615,0.1155270199966336,-3.949302345578555,-1.431105365881821,0.1744006643647196,0.233520719311953,-6.135116135519694,-3.333962923691049,-2.32142443615882,0.0629001425022333,-3.38242002174842,-0.7411005913260186,-1.0065557729344865,0.06651182408137,-3.5023452994862256,-0.7806181829803752,0.8861465650627216,0.2610919561541431,-8.048646681964534,-5.916635369244027,-4.465508969735401,-0.5007386441554877,-1.6096907058716023,0,0.0,0.4738583594931179,0.0807967568676211,56.0,140.0,56.0,140.0,1.116,6.672,2.7840000000000003,3.336,0.08,0.02,0.06,0.04,5.5440000000000005,4.62,2.7720000000000002,11.556000000000001,24.0,48.0,24.0,48.0,45.0,90.0,45.0,90.0,0.01,0.01,0.01,0.01,0.25,0.01,0.1,0.01,0.01,0.01,0.01,0.01,0.0,24.936924647364513,49.87384929472903,2.536366587941094,5.239878687317201,8.900934583201554,0.026107100346319,0.0254617632609707,506.90885363048835,10.82009632481806,0.2660749701493831,1.840670776151766e-05,1,0.0,2.0,1,0.0,15.215956831660215,0.15964289855360925,0.0002476419693828722,0.0,1.0,1.0,0.0,1.0,1.0,
1227,4851.619932747694,2,1,1,45.0,0.0,350.0,70,18.21339072908342,18.21339072908342,1,70,67.53360527884635,67.53360527884635,1,1,1,0,0,0,0,0,0.0833223568475918,-3.5195902008374595,-0.8139965238711986,-1.16780176172482,0.1088333625224065,-4.883948014475104,-2.295385197611508,-0.8618636123482818,0.2921179405958934,-9.087667860318884,-6.483444228614713,-5.43191523576669,0.0592894360601743,-3.4095470653576148,-0.8523103597168057,-1.1045223605888717,0.0992525892915493,-4.509990414382053,-2.1393240131382507,-0.7244150532055955,0.2290780012493,-6.529508685600726,-4.508875281750871,-3.3775220367765373,-1.388213535718984,-2.411049644524083,0,0.0,-1.0,0.9438456226230524,17.0,42.5,17.0,42.5,2.7840000000000003,2.22,1.668,6.672,0.04,0.08,0.02,0.06,1.464,1.464,1.752,2.196,24.0,48.0,24.0,48.0,70.0,140.0,70.0,140.0,0.01,0.01,0.01,0.01,0.01,0.01,0.01,0.01,0.01,0.01,0.01,0.01,0.0,22.780487330677293,45.560974661354585,2.5599765043859644,4.106695190238511,5.361358762923038,0.0253665757193498,0.0331219292329464,458.263575575476,16.058707189755104,0.1095688366697758,0.0001380360625752,1,1.0,2.0,1,0.0,14.415924655883215,0.10410176266257254,0.0001867667746162792,1.0,0.0,1.0,0.0,0.0,1.0,
1292,6226.779569658952,9,1,1,6.0,0.0,200.0,69,35.06179331455374,35.06179331455374,1,65,19.899936746098067,19.899936746098067,1,0,1,0,0,1,0,0,0.0902769159362281,-3.565641202311256,-0.9563105041898712,-1.2911253811661407,0.1077057832539584,-4.029888466103068,-1.5646954260337953,-0.2240433496393367,0.238013016080075,-5.965458048238553,-3.695195539634512,-2.591157377305865,0.0863115868044794,-3.1807794715029054,-0.5508958708160302,-0.723874391016039,0.1148827163443177,-4.4923264735009205,-1.95586497247592,-0.3227684628435142,0.2149383326692125,-6.45161160629622,-4.178533855294118,-2.81788601354752,,,1,1.0,0.778640355535502,0.2068083793066392,21.2,53.0,21.2,53.0,2.928,1.956,2.436,2.928,0.06,0.04,0.02,0.08,0.792,2.952,2.364,4.932,24.0,48.0,24.0,48.0,40.0,80.0,40.0,80.0,0.01,0.01,0.01,0.01,0.01,0.01,0.01,0.01,0.01,0.01,0.01,0.01,0.0,31.207843260188085,62.41568652037617,2.5829861998215877,4.986204803302457,8.364567309034976,0.0256857908664062,0.0390059031342407,408.1596769784491,11.179091025757389,0.1399815017962758,0.0001372715346886,0,0.0,2.0,1,0.0,13.99234977104385,0.09594660334871877,0.00038075079316306107,0.0,0.25,1.0,0.0,0.25,1.0,
823,2740.425636006952,10,0,1,310.0,0.0,225.0,70,52.21577868063467,52.21577868063467,1,,,,,0,0,0,0,0,0,0,0.0863665514461867,-3.451779385329287,-0.8633497923527079,-1.155919715950338,0.116562969523472,-5.231257404665744,-2.745577939217577,-1.1813251702766736,0.2663015656194586,-7.369709547126139,-5.151186069798134,-4.046107358821472,,,,,,,,,,,,,-3.061847502120564,,0,,1.0567949341558596,0.3231204332790299,462.0,1155.0,462.0,1155.0,1.116,5.5680000000000005,3.336,3.336,0.04,0.02,0.08,0.06,39.744,39.744,23.844,119.232,24.0,48.0,24.0,48.0,45.0,90.0,45.0,90.0,0.2,0.01,0.01,0.01,0.5,0.01,0.4,0.3,0.01,0.01,0.01,0.01,0.0,41.39015444015444,82.78030888030888,2.3336076037480025,5.1821760625230135,9.658244768779062,0.0189251467931155,0.025284283298686,311.31759594053744,13.22957994326516,0.0635443543619581,0.0004782469201515,1,0.0,0.0,0,1.0,14.415924655883215,0.10410176266257254,0.0001867667746162792,0.75,0.0,1.0,0.5,0.0,1.0,
1027,1666.0411339049424,3,0,1,200.3245363588449,0.0,1000.0,61,62.821279628295436,30.77826956755506,1,,,,,0,1,1,1,0,0,0,0.0767934366816867,-3.436789437777464,-0.7765120047536522,-0.8455658287493117,0.1061594906170666,-5.100022026549494,-2.549855253709154,-0.7375704535619494,0.236067102222599,-7.447377024054537,-5.2291687121586605,-3.913343720198035,,,,,,,,,,,,,,,1,,-1.0,0.5861020686786752,36.0,90.0,36.0,90.0,1.272,1.704,2.556,4.248,0.02,0.08,0.06,0.04,2.472,2.472,1.476,7.404,24.0,48.0,24.0,48.0,150.0,300.0,150.0,300.0,0.6,0.5,0.3,0.7,0.8,0.9,0.5,0.6,0.01,0.01,0.01,0.01,0.0,41.06251804330393,82.12503608660786,2.8161376072168003,5.255545847748535,8.073122529569831,0.0435109906752037,0.0563232753687836,1144.9093087627477,22.3596927627562,0.0599470208338283,0.0002588900644684,1,0.0,0.0,0,1.0,20.74501797552833,0.09639252876536634,0.00042071199945432767,0.0,0.0,1.0,0.0,0.0,1.0,
1184,3027.395677984212,4,1,1,190.0,0.0,380.0,64,59.255491564822336,13.599752166468745,1,68,25.395210670638146,9.999817769462313,1,1,1,0,1,0,0,0,0.0871164494121411,-3.4677468681682275,-0.7616229577794157,-0.9969310144392144,0.1165639164731667,-4.953009091064041,-2.330618564657194,-0.789721655666688,0.2598657028641494,-7.8594406297706465,-5.4276405235527365,-4.229135029014655,0.0768961929037249,-4.259163090657908,-1.48176050116498,-1.893380368008692,0.0957898167426405,-4.953157364371134,-2.2144367347759912,-0.7202089515197582,0.1657660065518171,-6.070608704964295,-3.971400165964284,-2.709871354226236,-1.0610192963605916,-0.5563295077254308,0,0.0,-1.0,1.031078536937882,63.0,157.5,63.0,157.5,1.272,1.704,2.556,4.248,0.06,0.04,0.08,0.02,5.5920000000000005,11.64,2.7960000000000003,4.656,24.0,48.0,24.0,48.0,57.0,114.0,57.0,114.0,0.3,0.01,0.01,0.01,0.5,0.3,0.5,0.5,0.01,0.01,0.01,0.01,0.0,24.86167960088692,49.72335920177384,2.5378968308832714,5.281575561080865,8.983375793960331,0.030374370190118,0.0813404307523295,540.3203242905112,19.594268909665267,0.0883376106614352,0.0021848534705817,1,1.0,1.0,1,0.0,18.422343696589962,0.11008879961505236,0.00037674610736641146,0.0,0.0,0.0,0.0,0.0,0.0,
1376,1666.0411339049424,3,1,1,29.0055,0.0,1600.0,67,41.84696985451577,41.84696985451577,1,66,17.934415651935332,17.934415651935332,1,0,0,1,0,1,0,1,0.0685397623003322,-3.2894577242123697,-0.6045651105308072,-0.790672234382412,0.1020473759696417,-5.051342611741971,-2.4293572846437024,-0.6272011708329914,0.2398924636916062,-7.561105586576303,-5.352760634412952,-4.003326360138206,0.0772626772484514,-3.614717695325236,-1.0108658822099297,-1.1434433969637705,0.0912200609790695,-4.169316081550178,-1.5530632506563071,0.0119695263461275,0.1187540824190187,-4.113469724168789,-2.1382480467660514,-0.7695467658584801,-2.3973946524646075,-3.407764815762493,0,0.0,0.6487946157568736,1.083858016409599,125.8,314.5,125.8,314.5,1.116,6.672,1.668,5.5680000000000005,0.08,0.06,0.04,0.02,12.096,25.188,4.032,15.108,24.0,48.0,24.0,48.0,320.0,640.0,320.0,640.0,0.01,0.01,0.01,0.01,0.8,0.01,0.2,0.01,0.01,0.01,0.5,0.8,0.0,41.06251804330393,82.12503608660786,2.8161376072168003,5.255545847748535,8.073122529569831,0.0435109906752037,0.0563232753687836,1144.9093087627477,17.78293748509378,0.0773953694413829,1.8979445610070944e-06,1,0.0,2.0,1,1.0,16.750114576986952,0.11057572623512782,0.00019092961705503104,0.0,0.0,0.0,0.0,0.0,0.0,
1000,3084.2107633132296,4,1,1,160.0,343.0,485.0,69,45.809126687603985,45.809126687603985,1,70,39.75886467226005,39.75886467226005,1,0,1,1,0,1,0,1,0.0810759932929375,-3.8946695161710174,-1.250332053284816,-1.5050881830679343,0.113201470118923,-4.900819862377615,-2.389820410920437,-0.9271858451012756,0.2154508807564746,-6.168024116055791,-4.095057525269779,-2.877649928350355,0.083332585925956,-2.843350001170005,-0.2411117762755501,-0.4095486756361491,0.1226506693619644,-4.5076421130590845,-1.9845687543986672,-0.3669770276413773,0.2432666975240658,-7.327961139197104,-4.759250894711484,-3.453069805367373,1.436498827575741,0.0300673292527017,0,0.0,0.0041213067602086,0.0011596977539575,32.0,80.0,32.0,80.0,0.972,2.928,2.928,4.884,0.04,0.06,0.02,0.08,3.576,4.464,2.976,2.976,24.0,48.0,24.0,48.0,28.400000000000002,56.800000000000004,28.400000000000002,56.800000000000004,0.01,0.01,0.01,0.01,0.01,0.01,0.01,0.01,0.01,0.01,0.01,0.01,0.0,24.86167960088692,49.72335920177384,2.5378968308832714,5.281575561080865,8.983375793960331,0.030374370190118,0.0813404307523295,540.3203242905112,13.314540619197471,0.080758590026255,0.0010503583305868,0,1.0,3.0,1,0.0,13.99234977104385,0.09594660334871877,0.00038075079316306107,0.0,0.0,1.0,0.0,0.0,1.0,
1238,6226.779569658952,2,1,1,311.8159854604064,50.0,400.0,62,53.17437508206481,57.56561708232214,1,62,45.08866146910165,18.480881247173986,1,0,1,0,1,0,0,0,0.0863592402630083,-3.795273009668979,-1.2505410902148355,-1.3827533803523837,0.1090926111987202,-4.440102695901511,-1.8999719312949808,-0.4059707308890325,0.225074414058672,-6.476131318278096,-4.355274979019015,-3.0004250818357847,0.0783537403487378,-3.3111741633998744,-0.6220116261176959,-0.8532075640561232,0.1053236914433564,-4.740989334622167,-2.206489778076426,-0.5708523810454608,0.2177865985278567,-7.408175361173311,-5.059884526547996,-3.808630234933016,-1.420366743138937,-0.3865248668975978,0,0.0,-0.1838916857854164,0.3475197133438534,24.0,60.0,24.0,60.0,1.104,3.684,2.208,1.476,0.04,0.02,0.08,0.06,1.092,4.548,2.184,1.824,24.0,48.0,24.0,48.0,52.5,105.0,52.5,105.0,0.01,0.01,0.01,0.01,0.01,0.01,0.01,0.01,0.01,0.01,0.01,0.01,0.0,22.780487330677293,45.560974661354585,2.5599765043859644,4.106695190238511,5.361358762923038,0.0253665757193498,0.0331219292329464,458.263575575476,18.959451730714925,0.1015305401387377,0.000140110078105,0,0.0,2.0,1,0.0,18.9349187337184,0.08318727456763397,0.0005606369111209724,0.0,1.0,1.0,0.0,0.25,1.0,
1032,2726.959170965149,10,1,1,400.0,0.0,450.0,67,103.81792962971255,69.3140307985474,1,65,6.899292791847986,7.332970512692673,1,0,1,0,0,0,0,0,0.1073107472188656,-4.375223029068321,-1.7191576657363214,-2.081184036424099,0.1298929118433073,-5.112275986305147,-2.494425452323432,-1.1778654397619812,0.2249993283231678,-6.231797798854165,-4.053070834038138,-3.0067763115291104,0.0845179002228993,-3.110889259888368,-0.4571061011192418,-0.6361681866601823,0.1161295860613631,-4.652682296024391,-2.081699663220945,-0.3615397746025947,0.1951590150125968,-6.00178810253128,-3.656908028180685,-2.456188961793821,-2.6087714577341883,-2.270221220153596,0,0.0,-0.0808014337090566,1.5,200.0,500.0,200.0,500.0,1.464,1.956,2.928,4.884,0.08,0.02,0.04,0.06,20.88,26.088,6.96,43.488,24.0,48.0,24.0,48.0,90.0,180.0,90.0,180.0,0.01,0.01,0.01,0.01,0.01,0.01,0.01,0.01,0.01,0.01,0.01,0.01,0.0,41.39015444015444,82.78030888030888,2.3336076037480025,5.1821760625230135,9.658244768779062,0.0189251467931155,0.025284283298686,311.31759594053744,14.514859082305726,0.0778522608141724,0.0035469583895693,0,0.0,3.0,1,0.0,15.121193464023477,0.09233475559302456,0.00030754784766514546,1.0,1.0,1.0,1.0,0.75,1.0,
1322,3084.2107633132296,5,1,1,120.0055,0.0,345.0,62,61.95333322353437,63.65664647983108,1,60,52.986403414864924,4.187937268409939,1,0,1,0,0,0,0,1,0.0663718212395202,-3.532404063664562,-0.8569122222569957,-1.0362059331691298,0.0948978757868556,-4.4446809487669805,-1.9136870306723672,-0.4317897655115909,0.1379099121887716,-4.481984546278158,-2.4574443507616084,-1.2497811530286158,0.0719610364872893,-2.979059950862006,-0.2655645674367621,-0.4736857093167842,0.0978493735947544,-4.436545169977356,-1.853267869788932,-0.2299102174274179,0.1779227945960834,-5.898492509975374,-3.5905601678667054,-2.3750371948943907,-1.6767933572676612,-2.8443146145033222,0,0.0,-0.2182536095088677,1.2166641131957014,244.0,610.0,244.0,610.0,1.836,1.476,2.208,2.208,0.04,0.02,0.06,0.08,22.188,27.732,7.392,46.212,24.0,48.0,24.0,48.0,51.75,103.5,51.75,103.5,0.01,0.01,0.01,0.2,0.01,0.2,0.01,0.01,0.01,0.01,0.01,0.01,0.0,32.031151990632324,64.06230398126465,2.1646502144932884,3.3744944371027596,5.753697696170352,0.0358802014094379,0.0857260427109676,509.9286737055783,16.770543862911964,0.071365590023726,0.0022201054318093,0,1.0,2.0,1,0.0,18.9349187337184,0.08318727456763397,0.0005606369111209724,0.0,0.0,0.0,0.0,0.0,0.0,
1201,1321.982893522959,2,1,1,290.0,0.0,260.0,67,56.906902401738236,56.906902401738236,1,60,22.762760960695292,22.762760960695292,1,0,0,0,1,0,0,1,0.080451586486193,-3.451460133377746,-0.8065519885276081,-1.00276864139223,0.1095391872724836,-5.111739606367649,-2.616468139593111,-0.8039613372883285,0.2514541192193553,-7.544380536154009,-5.236113646109772,-3.911597969886629,0.0783192404372455,-4.1207619540988265,-1.4617304054953053,-1.779832127235878,0.1037519674150072,-5.017164626726918,-2.5320694914708137,-1.0786054924635786,0.1933052409922727,-6.160886927118236,-4.1346358861529495,-3.062368736524599,-1.1671609193535453,-1.2805773182408997,0,0.0,0.0661768755686173,0.6503309023378157,98.0,245.0,98.0,245.0,1.668,2.22,3.336,5.5680000000000005,0.04,0.08,0.02,0.06,9.42,7.848,4.704,19.62,24.0,48.0,24.0,48.0,52.0,104.0,52.0,104.0,0.01,0.01,0.01,0.01,0.01,0.01,0.01,0.01,0.01,0.01,0.01,0.01,0.0,22.780487330677293,45.560974661354585,2.5599765043859644,4.106695190238511,5.361358762923038,0.0253665757193498,0.0331219292329464,458.263575575476,16.849743851784954,0.0685602242687035,0.0005151570391983,1,0.0,1.0,1,1.0,16.750114576986952,0.11057572623512782,0.00019092961705503104,0.0,0.0,1.0,0.0,0.0,1.0,
673,880.8996211331786,8,0,1,45.0,0.0,300.0,60,50.60552535097488,25.215026840142006,1,,,,,0,1,1,0,0,0,0,0.0774234995476114,-3.469574184813388,-0.7999916564645935,-0.9618550174654869,0.1064887957439357,-5.005211101467678,-2.4142055257877737,-0.6954333427699594,0.2186727114641129,-6.953267773384318,-4.70401314737781,-3.3482125334903525,,,,,,,,,,,,,,,1,,0.059619803053491,1.3349194488097886,15.0,37.5,15.0,37.5,0.852,5.1000000000000005,1.272,4.248,0.04,0.02,0.08,0.06,0.996,3.0,0.396,1.5,24.0,48.0,24.0,48.0,45.0,90.0,45.0,90.0,0.1,0.15,0.1,0.15,0.05,0.03,0.05,0.03,0.05,0.02,0.05,0.02,0.0,32.09742370955316,64.19484741910632,2.1998430747922435,3.4203056840352795,5.829138756586768,0.0281543378617289,0.0424875023147554,664.7986287229243,22.505450071368543,0.0615302320217537,0.0002633108499873,1,0.0,0.0,0,1.0,20.957125489364277,0.10129058112638381,0.0004409735998711196,0.0,0.0,0.0,0.0,0.0,0.0,
698,1278.4983244321725,1,1,1,490.80046626669537,0.0,1335.532297925631,70,22.0,22.0,1,70,0.0,0.0,1,0,1,1,0,0,0,0,0.0763735022935633,-3.6645638929852535,-0.9560188382800248,-1.208860376890061,0.1083424361308282,-5.196706960454834,-2.63328598349111,-0.9211957471725648,0.2736906111555807,-8.4022744184677,-6.123668875208668,-4.847273932217805,0.0707082448251525,-4.035938694072772,-1.261149474463502,-1.472073748677453,0.0793441586343743,-4.433126935416759,-1.7465672735045006,-0.1127866644890267,0.2028905655168388,-7.589102544355946,-5.205742492073626,-3.855510295506386,,,1,1.0,0.0905913916725269,0.407376240359518,24.0,60.0,24.0,60.0,1.116,3.336,2.7840000000000003,6.672,0.04,0.06,0.08,0.02,1.236,5.16,0.8280000000000001,6.192,24.0,48.0,24.0,48.0,80.0,160.0,80.0,160.0,0.01,0.01,0.01,0.01,0.01,0.01,0.01,0.01,0.01,0.01,0.01,0.01,0.0,32.1619819391635,64.323963878327,2.235097731158449,3.4660048596689492,5.9043272610017095,0.0438750794702872,0.036731444540163,946.2708670639884,15.650177367631423,0.0779058572607488,0.0,1,0.0,3.0,1,1.0,14.415924655883215,0.10410176266257254,0.0001867667746162792,0.0,0.0,1.0,0.0,0.0,1.0,
1007,6226.779569658952,2,1,1,75.0055,0.0,330.0,69,36.946494824120755,37.86382458209478,1,62,13.85493555904528,7.572764916418955,1,1,1,1,0,0,0,0,0.1089698659618617,-4.12705430143818,-1.449385146079592,-1.7660934696970771,0.1298096603068651,-4.495760337996301,-1.9862910491931067,-0.6263288549102706,0.2846822567505143,-7.459992114699889,-5.068479352049817,-3.8765206966971535,0.074417011474356,-3.273624648619878,-0.5861583072468051,-0.7336007560705597,0.0978631508888174,-4.628449072805557,-2.025271043062384,-0.4395153882278485,0.2143172079761821,-7.3904918390355006,-4.965870567682213,-3.797481573842523,0.4239244523562653,-0.6394873546243851,0,0.0,1.5,1.5,895.0,2237.5,895.0,2237.5,1.464,1.956,2.928,4.884,0.04,0.02,0.06,0.08,33.3,208.116,99.9,124.872,24.0,48.0,24.0,48.0,66.0,132.0,66.0,132.0,0.01,0.01,0.01,0.01,0.75,0.75,0.1,0.1,0.3,0.5,0.01,0.01,0.0,22.780487330677293,45.560974661354585,2.5599765043859644,4.106695190238511,5.361358762923038,0.0253665757193498,0.0331219292329464,458.263575575476,13.019836393308331,0.1527563639588096,1.803983148576569e-05,0,0.0,3.0,1,0.0,13.99234977104385,0.09594660334871877,0.00038075079316306107,0.0,0.25,0.0,0.0,0.25,0.0,
1217,897.8346892314378,6,1,1,285.0,175.0,500.0,61,127.69161728487325,43.61510255398353,1,60,33.137962963202405,2.4116514477542124,1,0,0,0,0,0,0,0,0.0697806273302755,-3.067040410684206,-0.3608522859318802,-0.6333575120411431,0.1086793896735476,-3.8522410108771634,-1.3174549599337648,0.4877377602179186,0.2058599412107021,-5.734183011365822,-3.507330328334484,-1.7009727583821934,0.0751471181034596,-3.2982345457084543,-0.5818617565541913,-0.6730771618192991,0.1003785165742389,-4.823809138121215,-2.104792278887124,-0.3501404311265518,0.1956898052002489,-7.012512852482102,-4.675016175021741,-3.346450241630796,-0.9292134304092324,0.6517278127016366,0,0.0,1.453976218353109,1.5,57.0,142.5,57.0,142.5,1.836,1.476,1.104,4.416,0.08,0.04,0.02,0.06,2.52,4.2,5.04,10.5,24.0,48.0,24.0,48.0,48.75,97.5,48.75,97.5,0.01,0.01,0.01,0.01,0.5,0.6,0.8,0.4,0.08,0.01,0.01,0.01,0.0,24.936924647364513,49.87384929472903,2.536366587941094,5.239878687317201,8.900934583201554,0.026107100346319,0.0254617632609707,506.90885363048835,17.70595728438575,0.1652826011499713,0.0,0,0.0,3.0,1,1.0,19.169605448254682,0.08701219839096837,0.0006191504227060099,0.0,1.0,0.0,0.0,1.0,0.0,
264,897.8346892314378,1,1,1,19.0,0.0,1200.0,70,25.76931511940843,25.76931511940843,3,62,25.337636861763567,25.337636861763567,1,1,0,0,0,0,0,0,0.0769780620356087,-3.692280093916304,-1.0935178393127232,-1.0143717640952528,0.1095589262606247,-4.49306972430458,-2.2873406372868024,-0.2946061337659763,0.3164544860491038,-8.038277210140098,-5.850669202148344,-4.327026187853448,0.0732705658866987,-3.542439028784868,-0.8654326865059817,-0.9591825536597078,0.0976821518582547,-4.990562680212055,-2.3869999311524936,-0.4226393808902991,0.1844346007617247,-6.854601613190159,-4.679659180038357,-3.206754159912437,,,1,1.0,-1.0,1.5,4.8,12.0,4.8,12.0,2.928,4.884,1.464,1.956,0.06,0.02,0.04,0.08,0.18,1.356,0.276,1.1280000000000001,24.0,48.0,24.0,48.0,240.0,480.0,240.0,480.0,0.5,0.6,0.6,0.7,0.2,0.2,0.4,0.4,0.05,0.05,0.1,0.01,0.0,32.1619819391635,64.323963878327,2.235097731158449,3.4660048596689492,5.9043272610017095,0.0438750794702872,0.036731444540163,946.2708670639884,10.11419286710507,0.7199572226067572,0.0,0,0.0,3.0,1,1.0,12.880469113325246,0.11827946208135254,0.00022318413820896142,0.0,1.0,1.0,0.0,1.0,1.0,
129,949.5838434120576,11,1,1,75.0055,0.0,650.0,60,43.48012766342239,44.50266538228287,1,60,35.349697287335275,22.61314297880227,1,0,0,0,1,0,0,0,0.0753102153276736,-3.607257146213399,-1.0352451232109083,-1.2768001566683478,0.0999436627743329,-4.480345460913895,-1.9580802129556425,-0.3973025503270969,0.1639113858349218,-5.2535297162028645,-3.2709565812990284,-2.057719580337785,0.0766700489729759,-3.1325657614393645,-0.3940579498651606,-0.5471402581070861,0.1055166486413818,-4.424458156125379,-1.8182321565592496,-0.1306255439481047,0.2220541389510681,-6.794911852702205,-4.392850712852782,-3.1537381485850906,-1.3656919063832147,-1.6616096932586366,0,0.0,0.5806252872855019,1.0744589929702286,215.0,537.5,215.0,537.5,1.836,2.208,0.732,4.416,0.08,0.02,0.06,0.04,6.18,46.356,9.276,38.628,24.0,48.0,24.0,48.0,97.5,195.0,97.5,195.0,0.5,0.6,0.1,0.75,0.5,0.6,0.75,0.75,0.01,0.01,0.01,0.01,0.0,40.64727272727273,81.29454545454546,2.734057673143996,5.085928680460405,7.8049459259432306,0.0360493170929873,0.0581626556147757,757.8188728399456,19.977196615618297,0.0827325091377375,0.0005215537112028,0,0.0,0.0,0,1.0,20.1966503403674,0.08130024967555968,0.0007439175162698796,0.0,0.25,0.0,0.0,0.25,0.0,
176,967.2736886617232,2,1,1,0.0055,0.0,1000.0,61,48.326366784988664,26.43127708993413,1,62,63.97987420919451,66.89779807939036,1,0,0,0,0,0,0,0,0.0809985390382777,-4.296642616824364,-1.541337980966901,-1.787102835623274,0.1028856482443241,-5.043266020409348,-2.445838284429183,-0.9426533267,0.2129407737874758,-6.806679814109798,-4.690084418503887,-3.4591197548369315,0.0778039106891556,-3.555370607443824,-0.8445766131945794,-0.9902785460934508,0.1013515873558698,-5.035382286652726,-2.4369775333184096,-0.6440394117980367,0.2079059809780623,-7.31842688543977,-4.985930458301384,-3.6526799186864247,,,1,1.0,0.3233875723962284,0.0461586461562058,185.0,462.5,185.0,462.5,1.836,1.476,2.208,2.208,0.04,0.02,0.08,0.06,5.448,34.08,8.184000000000001,40.896,24.0,48.0,24.0,48.0,150.0,300.0,150.0,300.0,0.01,0.01,0.01,0.01,0.01,0.01,0.01,0.01,0.01,0.01,0.01,0.01,0.0,22.780487330677293,45.560974661354585,2.5599765043859644,4.106695190238511,5.361358762923038,0.0253665757193498,0.0331219292329464,458.263575575476,21.86160102023211,0.053802233296918,0.000309587306433,0,0.0,0.0,0,1.0,19.169605448254682,0.08701219839096837,0.0006191504227060099,0.0,0.0,1.0,0.0,0.0,1.0,
560,938.1637312456232,10,1,1,265.0,0.0,300.0,60,59.763699394526434,48.68705267489093,1,61,0.0,0.0,1,1,1,1,0,0,0,0,0.0801647630192378,-4.122551976941557,-1.4230972576852494,-1.8464231587903528,0.1031049540419098,-5.1587520304042105,-2.493325316885559,-1.0831318361415243,0.1841248801213826,-5.7747998824736495,-3.774305067604669,-2.7920872686835687,0.0694472729216357,-3.385141157217848,-0.6704268088691685,-0.7884652448978836,0.096368677055985,-5.112318831503033,-2.4890932365142486,-0.6742437784663523,0.1706414012663844,-6.333546605595916,-4.148882680378973,-2.8752756773183825,-1.7738692052588012,-1.4986934378913317,0,0.0,0.0886990488062296,0.851927915709362,59.0,147.5,59.0,147.5,1.836,1.476,2.208,2.208,0.08,0.04,0.06,0.02,5.088,6.36,1.692,10.596,24.0,48.0,24.0,48.0,45.0,90.0,45.0,90.0,0.1,0.75,0.1,0.8,0.75,0.85,0.75,0.99,0.15,0.25,0.1,0.5,0.0,41.39015444015444,82.78030888030888,2.3336076037480025,5.1821760625230135,9.658244768779062,0.0189251467931155,0.025284283298686,311.31759594053744,20.988753395273527,0.042008920870278,0.0124634226816843,0,0.0,6.0,1,1.0,20.1966503403674,0.08130024967555968,0.0007439175162698796,0.25,0.0,1.0,0.0,0.0,1.0,
499,880.8996211331786,8,1,1,515.0,0.0,375.0,66,73.55086403792353,73.55086403792353,1,67,18.53133384679353,18.53133384679353,1,0,0,0,0,0,0,0,0.0831488396762211,-3.4788356471483644,-0.7487953032561588,-0.9560906038114584,0.1166601647961372,-5.181118864847652,-2.5554480264845933,-0.8921830854917603,0.2710610508742681,-8.228266478123027,-5.730896496639439,-4.541753843913975,0.0761576266697529,-4.28067683181447,-1.5108273491005844,-1.774399157011949,0.1035375078049806,-5.16574448981767,-2.587857167905727,-0.910610710712952,0.1596538492367313,-5.907438687459059,-3.911256714705267,-2.526490320426095,-0.426587376792152,-0.3495299055355009,0,0.0,1.0980232636834086,1.072409138254305,103.0,257.5,103.0,257.5,2.7840000000000003,3.336,1.116,6.672,0.04,0.06,0.08,0.02,8.016,24.036,4.812,8.016,24.0,48.0,24.0,48.0,75.0,150.0,75.0,150.0,0.01,0.01,0.01,0.01,0.01,0.01,0.01,0.01,0.01,0.01,0.01,0.01,0.0,32.09742370955316,64.19484741910632,2.1998430747922435,3.4203056840352795,5.829138756586768,0.0281543378617289,0.0424875023147554,664.7986287229243,18.346973026273428,0.077541556567411,9.14257082539341e-05,1,0.0,0.0,0,1.0,16.882965937583535,0.13800724551416013,0.00040831085282485224,0.0,0.0,0.0,0.0,0.0,0.0,
1188,967.2736886617232,2,1,1,340.0,0.0,960.0,65,60.36818216399617,60.36818216399617,1,68,34.82779740230548,34.82779740230548,1,0,1,1,1,1,0,0,0.0814767402499997,-4.116232276854094,-1.5565008058588672,-1.730187453070072,0.1137533441140479,-5.187658656600523,-2.7806468261851367,-1.2843792258393805,0.2133954357335141,-6.42191445033565,-4.497357532207878,-3.146465798743586,0.0695763097555113,-3.0711291576219897,-0.4102520433288587,-0.6924262160714795,0.1044576552531227,-4.879843610782241,-2.350304270331208,-0.6328138904560485,0.212185029604716,-6.900935255450282,-4.565173411938836,-3.332465414000623,-0.5062361222630999,-0.2868096211672497,0,0.0,0.1604466569276905,0.4429974082695729,108.0,270.0,108.0,270.0,2.928,2.928,2.436,1.956,0.02,0.04,0.06,0.08,3.54,22.128,5.316,26.556,24.0,48.0,24.0,48.0,192.0,384.0,192.0,384.0,0.01,0.01,0.01,0.01,0.01,0.1,0.1,0.3,0.1,0.1,0.1,0.01,0.0,22.780487330677293,45.560974661354585,2.5599765043859644,4.106695190238511,5.361358762923038,0.0253665757193498,0.0331219292329464,458.263575575476,17.48806506434029,0.0543725777880977,0.0001880937898166,0,0.0,3.0,1,1.0,16.711153315543942,0.07685244377312644,0.0004755918671586365,0.0,0.0,1.0,0.0,0.0,1.0,
711,3306.360982332038,2,1,1,515.0,0.0,500.0,68,74.18305143223007,76.95414315256672,1,63,41.633345191557694,19.631158967491512,1,0,1,1,0,1,1,1,0.0877127149693202,-4.018820707502499,-1.4056917820017452,-1.5862685081066683,0.1128169801150988,-4.877256896625025,-2.4154411673444973,-0.9534183322808258,0.2336471224697029,-6.790171585018283,-4.622307327517077,-3.431966585511055,0.0868813946117639,-3.40400833837281,-0.6631885983564362,-0.8721419466756682,0.1201069380219006,-4.684829895078576,-2.0921913363472235,-0.5224824657168348,0.2360689420547564,-7.367437382489847,-5.002912635486899,-3.770336627995316,-0.2303837600263736,0.241712867190099,0,0.0,0.301829825801352,0.1278085527382318,103.0,257.5,103.0,257.5,2.928,1.956,1.464,4.884,0.04,0.08,0.06,0.02,11.1,13.872,3.696,23.112000000000002,24.0,48.0,24.0,48.0,100.0,200.0,100.0,200.0,0.5,0.25,0.1,0.1,0.5,0.25,0.25,0.1,0.5,0.25,0.25,0.5,0.0,22.780487330677293,45.560974661354585,2.5599765043859644,4.106695190238511,5.361358762923038,0.0253665757193498,0.0331219292329464,458.263575575476,14.902691533932163,0.0828199398508674,8.958921375429955e-05,0,1.0,2.0,1,0.0,14.218084462965704,0.10230581503793665,0.0004778916861401938,0.0,0.0,1.0,0.0,0.0,1.0,
1512,3027.395677984212,5,1,1,55.1,0.0,380.0,65,73.2269406710164,73.2269406710164,1,67,18.53846599266237,18.53846599266237,1,0,1,1,1,0,0,0,0.0888895127746996,-3.537585898425728,-0.8216925490495467,-0.9845270186296028,0.1153681967345765,-5.007955017593731,-2.36616142357451,-0.7055421185692676,0.2746695978862646,-8.261780281927118,-5.774078351089763,-4.526680375174043,0.0826719484654908,-4.076936664446382,-1.3634312264950017,-1.6294385097302584,0.1013644707480874,-4.806542274186604,-2.183700274628881,-0.5984494035603105,0.1786027219758587,-6.225880020275191,-4.087657562416757,-2.8758095838614013,0.3016248391425871,0.8745470413988297,0,0.0,-1.0,0.5646114398847782,151.02,377.55,151.02,377.55,1.116,3.336,3.336,5.5680000000000005,0.02,0.06,0.08,0.04,6.852,28.572,4.572,34.284,24.0,48.0,24.0,48.0,76.0,152.0,76.0,152.0,0.05,0.05,0.05,0.05,0.5,0.33,0.05,0.33,0.05,0.05,0.05,0.05,0.0,32.031151990632324,64.06230398126465,2.1646502144932884,3.3744944371027596,5.753697696170352,0.0358802014094379,0.0857260427109676,509.9286737055783,19.020639953177927,0.0872565443151185,0.0007723054729073,1,1.0,0.0,0,0.0,17.60203212252335,0.106325169514276,0.00033087298198480907,0.0,0.0,1.0,0.0,0.0,1.0,
413,3223.604382708034,11,1,1,400.0,0.0,600.0,63,66.93032370818912,66.93032370818912,1,65,24.974001383652656,24.974001383652656,1,0,1,0,0,0,0,1,0.077762337901689,-3.6447186890085534,-0.9225487891269244,-1.1182034733089117,0.0905261611603255,-4.20563247488154,-1.5502753579615431,0.0390959134422056,0.137212238085038,-4.42720844204127,-2.3605746923426545,-1.0158917095403182,0.0793368300724053,-3.0185868166193823,-0.3079315535962206,-0.499456192062672,0.1054708958829509,-4.350610267050874,-1.7189526861121878,-0.1232850875562652,0.2006223521794057,-5.7870393487964815,-3.5312552499213368,-2.353044573142621,-3.500069403749483,-3.260059699537102,0,0.0,-1.0,1.5,80.0,200.0,80.0,200.0,1.104,1.476,1.836,4.416,0.06,0.02,0.04,0.08,3.744,18.708000000000002,6.24,6.24,24.0,48.0,24.0,48.0,90.0,180.0,90.0,180.0,0.3,0.01,0.4,0.01,0.2,0.1,0.01,0.01,0.01,0.4,0.2,0.01,0.0,40.64727272727273,81.29454545454546,2.734057673143996,5.085928680460405,7.8049459259432306,0.0360493170929873,0.0581626556147757,757.8188728399456,15.81718121470816,0.0948541137189266,0.0007398594456757,0,0.0,2.0,1,0.0,18.180088810367447,0.08299952010681523,0.000327539308753741,0.0,1.0,0.0,0.0,1.0,0.0,
366,688.7628253365825,5,1,1,60.0,0.0,450.0,60,4.027722573297669,4.566786705175066,1,60,100.69306433244172,54.8014404621008,1,1,0,1,0,0,0,0,0.0759679728394973,-4.128594600027498,-1.3940890441282698,-1.770903994460104,0.1032168071610428,-4.969071562275418,-2.4343000488056448,-0.9729180386744956,0.187118926677276,-6.00060261254279,-3.9803699847483487,-2.824829984289902,0.073310946908643,-3.4408965290363005,-0.743542168702417,-0.9040020192459234,0.103318863589109,-4.945924279357578,-2.38902180216288,-0.5723945026082886,0.1904429867740089,-6.740545169734891,-4.481530317465167,-3.1077769184268007,1.7322604471158565,0.4933557676758134,0,0.0,0.0011224740282344,0.3457188369231343,32.0,80.0,32.0,80.0,1.104,3.684,2.208,1.476,0.08,0.06,0.02,0.04,0.924,5.748,1.3800000000000001,6.9,24.0,48.0,24.0,48.0,67.5,135.0,67.5,135.0,0.01,0.01,0.01,0.01,0.25,0.01,0.1,0.5,0.1,0.25,0.6,0.6,0.0,32.031151990632324,64.06230398126465,2.1646502144932884,3.3744944371027596,5.753697696170352,0.0358802014094379,0.0857260427109676,509.9286737055783,21.5068029341267,0.0516891074666687,0.0011300739727708,0,0.0,1.0,1,1.0,20.1966503403674,0.08130024967555968,0.0007439175162698796,0.0,0.0,1.0,0.0,0.0,1.0,
1569,999.5341708562004,4,1,1,100.0,0.0,800.0,64,55.6296962199801,55.6296962199801,1,65,55.022872539967885,55.022872539967885,1,0,1,1,0,1,1,1,0.0719649378250765,-3.392248263109157,-0.7366321575803332,-1.0083364889593338,0.1050818688484401,-4.990436842180081,-2.425196450886455,-0.7065692556509198,0.2370747771085977,-7.412984839035564,-5.145273648670135,-3.8386900336023153,0.0683144217615966,-4.033799729392802,-1.2880301110569723,-1.390827785368036,0.093387352163887,-4.867620802079808,-2.2594895346425625,-0.6125951376157175,0.1489306143840819,-5.578785649647726,-3.564649078851424,-2.2424646808535296,0.2576174983078271,0.7211885027540018,0,0.0,0.3844462792273663,0.0168514700571453,20.0,50.0,20.0,50.0,2.556,1.704,1.272,4.248,0.06,0.08,0.04,0.02,1.776,1.476,0.888,3.696,24.0,48.0,24.0,48.0,120.0,240.0,120.0,240.0,0.01,0.01,0.01,0.01,0.05,0.05,0.05,0.1,0.01,0.01,0.01,0.01,0.0,24.86167960088692,49.72335920177384,2.5378968308832714,5.281575561080865,8.983375793960331,0.030374370190118,0.0813404307523295,540.3203242905112,19.7118794945058,0.0726529157643416,0.0011395901822144,1,0.0,2.0,1,1.0,18.422343696589962,0.11008879961505236,0.00037674610736641146,0.0,0.0,1.0,0.0,0.0,1.0,
535,999.5341708562004,4,1,1,80.0,0.0,600.0,67,5.0,5.0,1,68,5.0,5.0,1,0,0,0,0,0,0,0,0.0831978089873251,-3.67490018499356,-1.0024692542850149,-1.2612937906512167,0.123627648012713,-5.47293363198447,-2.9096046497918966,-1.2034688942255105,0.2805637788778029,-8.588140994384,-6.230310187887008,-4.895018285496723,0.070884338213975,-4.126273719455567,-1.2978476710106512,-1.585220967009161,0.0941595481577511,-4.89645735623566,-2.24237738854545,-0.555136679482279,0.1665020684496307,-6.069842483056478,-3.975857799579244,-2.666425725435541,0.5579694497427345,0.4235279523903277,0,0.0,0.9474344994317336,0.8366527599940177,16.0,40.0,16.0,40.0,3.336,2.22,2.7840000000000003,3.336,0.06,0.08,0.04,0.02,0.516,3.204,1.536,1.92,24.0,48.0,24.0,48.0,120.0,240.0,120.0,240.0,0.01,0.01,0.01,0.01,0.01,0.01,0.01,0.01,0.01,0.01,0.01,0.01,0.0,24.86167960088692,49.72335920177384,2.5378968308832714,5.281575561080865,8.983375793960331,0.030374370190118,0.0813404307523295,540.3203242905112,18.07319109192393,0.0706732530361554,0.0003917509357802,1,0.0,0.0,0,1.0,16.750114576986952,0.11057572623512782,0.00019092961705503104,0.0,0.0,0.0,0.0,0.0,0.0,
1530,1278.4983244321725,1,1,1,0.0,0.0,1800.0,61,42.26836117611626,42.26836117611626,1,61,42.26836117611626,42.26836117611626,1,1,1,1,1,0,0,0,0.0814022096249713,-3.2051084345428507,-0.5217630103434389,-0.7943225380947161,0.1088808592973087,-4.720029284025555,-2.087199772439129,-0.4578016627908186,0.2383445560734464,-6.949324095264317,-4.611466023247584,-3.356309899322215,0.074040303028832,-4.17776229258198,-1.4240133743017267,-1.6509144229499464,0.0947118729263928,-4.992086074872543,-2.363372339761797,-0.6285385549417624,0.1522176280654207,-5.920138217062289,-3.9371838116405966,-2.524426916033605,-0.985107510004575,-0.7557662292910708,0,0.0,0.2908895295335559,0.9045869547760312,0.0,0.0,0.0,0.0,1.272,1.704,2.124,5.1000000000000005,0.04,0.02,0.08,0.06,0.0,0.0,0.0,0.0,24.0,48.0,24.0,48.0,270.0,540.0,270.0,540.0,,,,,0.01,0.01,0.01,0.01,0.01,0.01,0.01,0.01,0.0,32.1619819391635,64.323963878327,2.235097731158449,3.4660048596689492,5.9043272610017095,0.0438750794702872,0.036731444540163,946.2708670639884,20.46841298306459,0.0799037156631271,0.0,1,0.0,3.0,1,1.0,20.74501797552833,0.09639252876536634,0.00042071199945432767,0.0,0.0,1.0,0.0,0.0,1.0,
223,3306.360982332038,2,0,1,55.0,24.0,220.0,69,44.36995471187443,44.36995471187443,1,,,,,0,0,0,0,1,1,1,0.0881907013988958,-4.249973865089432,-1.5166024526583148,-1.8721165720016373,0.1145345713615487,-5.059893958903635,-2.5449027675049387,-1.1414404348781084,0.2580051013650399,-7.826781232737511,-5.6185870079888245,-4.507459181674077,,,,,,,,,,,,,-2.4986916566248234,,0,,-0.1838916857854164,0.3475197133438534,19.0,47.5,19.0,47.5,0.972,2.928,2.928,4.884,0.04,0.08,0.02,0.06,1.764,5.304,1.056,1.764,24.0,48.0,24.0,48.0,39.2,78.4,39.2,78.4,0.01,0.01,0.01,0.01,0.01,0.01,0.01,0.01,0.01,0.01,0.01,0.01,0.0,22.780487330677293,45.560974661354585,2.5599765043859644,4.106695190238511,5.361358762923038,0.0253665757193498,0.0331219292329464,458.263575575476,15.845299248219478,0.0881427095107688,3.345920546210628e-05,0,1.0,2.0,1,0.0,13.99234977104385,0.09594660334871877,0.00038075079316306107,1.0,0.0,1.0,0.0,0.0,1.0,
259,4398.058351676,11,0,1,240.0,0.0,500.0,66,41.53493112014879,26.812505236447926,1,,,,,0,0,1,0,0,0,1,0.0761677894644489,-3.707591722008385,-1.020969219297076,-1.2512206881191863,0.0893743582806976,-4.435230957666546,-1.815980687089483,-0.3086006639205457,0.1553023224919767,-5.027847482478872,-2.9733328349690145,-1.8429331935365985,,,,,,,,,,,,,-3.1686436776370908,,0,,0.0160269301660149,0.0080205879135902,48.0,120.0,48.0,120.0,1.464,5.856,2.436,1.956,0.08,0.02,0.06,0.04,4.86,10.128,1.62,6.072,24.0,48.0,24.0,48.0,100.0,200.0,100.0,200.0,0.01,0.01,0.01,0.01,0.75,0.01,0.01,0.9,0.01,0.01,0.01,0.01,0.0,40.64727272727273,81.29454545454546,2.734057673143996,5.085928680460405,7.8049459259432306,0.0360493170929873,0.0581626556147757,757.8188728399456,15.33554063262717,0.0891629937827156,0.0005360481851145,0,1.0,2.0,1,0.0,15.698780185578718,0.09685849446736142,0.0004563119380560841,1.0,0.0,1.0,0.0,0.0,1.0,
805,4230.715283026676,7,1,1,400.0,0.0,700.0,69,39.93900241355931,39.93900241355931,1,70,39.28426466907473,39.28426466907473,1,0,1,0,0,0,0,0,0.0841422027378601,-3.544357638679017,-0.8810535654727402,-0.9261766438475352,0.1124629652335677,-5.076153237256256,-2.4014423712272817,-0.7214750440464163,0.2838413359768181,-8.528968527335982,-6.1413695854464665,-4.765812909744113,0.086937760231069,-4.144671437637005,-1.4270811465811215,-1.6951384456142635,0.1163302459961601,-4.786816056070783,-2.0908330260026595,-0.533703312758298,0.1988642010457436,-6.711859178154517,-4.403507660186804,-3.001019032568323,0.4241779383188932,-0.928714311636383,0,0.0,0.1887270576191055,0.138792122583777,80.0,200.0,80.0,200.0,1.668,5.5680000000000005,3.336,2.22,0.06,0.04,0.02,0.08,4.056,6.768,8.124,16.92,24.0,48.0,24.0,48.0,140.0,280.0,140.0,280.0,0.01,0.01,0.01,0.01,0.3,0.01,0.15,0.3,0.01,0.01,0.01,0.01,0.0,22.588588178913746,45.17717635782749,2.5323437587719293,4.062366946087904,5.303487504109683,0.0429280377108032,0.0337495491155457,400.1858597446627,16.066757701029417,0.0922006054155628,0.0,1,1.0,0.0,0,0.0,14.882781132501421,0.11566076031761527,9.726445745082914e-05,0.0,0.0,1.0,0.0,0.0,1.0,
635,897.8346892314378,1,0,1,300.0,0.0,300.0,62,49.516965193069055,49.516965193069055,1,,,,,0,0,0,0,0,0,1,0.083252571919605,-4.319154364866015,-1.6545935935393703,-1.8250905599356464,0.1125668070553579,-5.263107597169673,-2.708531368494186,-0.98262269950642,0.2249031553228259,-6.89778336364922,-4.8925581994799305,-3.4452552407472385,,,,,,,,,,,,,-0.917172312717972,,0,,0.704145447324292,1.5,60.0,150.0,60.0,150.0,1.836,2.208,2.208,1.476,0.02,0.04,0.06,0.08,5.46,4.548,2.724,11.364,24.0,48.0,24.0,48.0,45.0,90.0,45.0,90.0,0.2,0.01,0.05,0.1,0.2,0.2,0.1,0.3,0.01,0.01,0.01,0.01,0.0,32.1619819391635,64.323963878327,2.235097731158449,3.4660048596689492,5.9043272610017095,0.0438750794702872,0.036731444540163,946.2708670639884,20.68812184340114,0.051348965420606,0.0,0,0.0,0.0,0,1.0,18.9349187337184,0.08318727456763397,0.0005606369111209724,0.0,0.0,0.0,0.0,0.0,0.0,
1326,3922.948378218528,6,0,1,150.0,0.0,200.0,69,19.0,19.0,1,,,,,0,0,0,0,0,0,0,0.0845677283234029,-3.225266166220361,-0.49314756682266,-0.7431524804389907,0.1121855563649291,-4.066332142089777,-1.3695715896001337,0.0363090657181128,0.2530794519803719,-6.64087526546273,-4.136546593268725,-2.936527574707753,,,,,,,,,,,,,-1.804445118994964,,0,,-1.0,0.8673453852842705,30.0,75.0,30.0,75.0,1.464,1.956,2.928,4.884,0.08,0.06,0.04,0.02,3.348,4.188,1.116,6.972,24.0,48.0,24.0,48.0,40.0,80.0,40.0,80.0,0.4,0.01,0.01,0.4,0.2,0.1,0.01,0.01,0.01,0.01,0.01,0.01,0.0,24.936924647364513,49.87384929472903,2.536366587941094,5.239878687317201,8.900934583201554,0.026107100346319,0.0254617632609707,506.90885363048835,12.293616084596373,0.178003698168262,0.0,0,1.0,0.0,0,0.0,13.99234977104385,0.09594660334871877,0.00038075079316306107,0.0,0.0,1.0,0.0,0.0,1.0,
42,897.8346892314378,6,1,1,30.0,0.0,400.0,67,46.67959461599871,46.67959461599871,1,62,5.491717013646907,5.491717013646907,1,1,0,0,1,1,0,0,0.0832925953609447,-4.181151431544677,-1.5070785610257385,-1.8183691534566,0.1143645141413895,-5.3512310777754815,-2.774415384209555,-1.2211278819807128,0.2424389819999713,-7.256029506842058,-5.114169197637843,-3.890584057150545,0.0800586766459936,-3.455050357315329,-0.7885406481780237,-1.5646714288752614,0.1316355313303091,-5.669732691312208,-3.0701088625822384,-1.8797473191036105,0.2023841365908578,-7.233096287360818,-5.000123326075663,-4.179014405349259,1.1436870358369864,2.676716183979907,0,0.0,0.1195884622376629,1.5,6.0,15.0,6.0,15.0,2.436,1.956,1.464,5.856,0.02,0.04,0.06,0.08,0.20400000000000001,1.56,0.312,1.308,24.0,48.0,24.0,48.0,80.0,160.0,80.0,160.0,0.01,0.01,0.01,0.01,0.01,0.01,0.01,0.01,0.01,0.01,0.01,0.01,0.0,24.936924647364513,49.87384929472903,2.536366587941094,5.239878687317201,8.900934583201554,0.026107100346319,0.0254617632609707,506.90885363048835,16.742541561213468,0.0565734845784836,3.947151241489087e-06,0,0.0,2.0,1,1.0,15.121193464023477,0.09233475559302456,0.00030754784766514546,0.0,0.0,1.0,0.0,0.0,1.0,
1091,897.8346892314378,1,1,1,110.0055,0.0,800.0,69,93.01988988656193,73.14995856381535,1,67,42.63411619800755,42.800507670317494,1,1,1,1,1,1,1,1,0.0898003906916965,-4.587654641329316,-1.9130621446428684,-2.050774588293666,0.1145311079276669,-5.408560245507569,-2.833659201311783,-1.1639421252945077,0.2530153268958858,-7.58118132343549,-5.5514670473248575,-4.1019817424233205,0.0592677938590106,-3.237394952529636,-0.5477826015088454,-0.6229319210659087,0.0838607268860654,-4.787424412814839,-2.086024996043588,-0.1837906686276971,0.1559181476482156,-6.142239389284176,-3.9534576184806616,-2.4883160696419866,0.2421658882228913,0.6184195250551546,0,0.0,0.1861651819684921,0.042325528630016,222.0,555.0,222.0,555.0,0.972,5.856,1.464,4.884,0.08,0.04,0.06,0.02,12.384,20.652,20.652,61.944,24.0,48.0,24.0,48.0,160.0,320.0,160.0,320.0,0.5,0.1,0.9,0.99,0.5,0.01,0.2,0.1,0.01,0.01,0.01,0.01,0.0,32.1619819391635,64.323963878327,2.235097731158449,3.4660048596689492,5.9043272610017095,0.0438750794702872,0.036731444540163,946.2708670639884,15.547015571891018,0.0590703201256546,0.0,0,0.0,5.0,1,1.0,13.99234977104385,0.09594660334871877,0.00038075079316306107,0.0,0.0,1.0,0.0,0.0,1.0,
901,1666.0411339049424,11,1,1,135.0,0.0,1500.0,65,74.48639190336934,72.14546011629642,1,70,74.03312785527582,74.42373780417945,1,0,0,0,0,1,0,1,0.0771652579010321,-3.449868673124816,-0.7925786466181937,-1.0013250250390553,0.1079051135817879,-5.150962948615681,-2.560812634148285,-0.856097140779933,0.2412961493611571,-7.606188859426362,-5.315286301994441,-4.093748482062819,0.0718670118017043,-3.5649697933826663,-0.9437164150039836,-1.087139008254569,0.0906311323497762,-4.111497410379078,-1.5550665873379654,-0.0143715244953367,0.1282992388976024,-4.300939925923572,-2.2725122912295745,-0.954803620096211,-0.8808414344648527,-1.8144038063609191,0,0.0,0.0160269301660149,0.0080205879135902,27.0,67.5,27.0,67.5,1.668,5.5680000000000005,1.116,6.672,0.04,0.06,0.02,0.08,2.448,5.112,0.8160000000000001,3.06,24.0,48.0,24.0,48.0,300.0,600.0,300.0,600.0,0.01,0.01,0.01,0.01,0.01,0.01,0.01,0.01,0.01,0.01,0.01,0.01,0.0,40.64727272727273,81.29454545454546,2.734057673143996,5.085928680460405,7.8049459259432306,0.0360493170929873,0.0581626556147757,757.8188728399456,19.358097605475745,0.0694139675980367,0.0006487392341023,1,0.0,0.0,0,1.0,17.60203212252335,0.106325169514276,0.00033087298198480907,0.0,0.0,1.0,0.0,0.0,1.0,
657,688.7628253365825,4,1,1,51.0,220.18119708725047,450.0,62,24.193434437440384,27.135275457262725,1,60,53.43663045265684,1.9978115558448533,2,0,1,1,0,0,0,0,0.0688558180856584,-3.813562194901811,-1.2193221309754063,-1.4550926811473603,0.0971389178670452,-4.830661215080421,-2.315409150349116,-0.7423275891816192,0.1419704317404694,-4.63658191122643,-2.6714231536217383,-1.4768821205624567,0.0611103143692808,-2.452310868024425,0.2815803030594023,0.2098761387549506,0.0855828404186909,-3.521221632254969,-0.8326006558450845,0.8392986340972134,0.1714117307873063,-5.392333991629333,-2.853945770293095,-1.5961125902610485,-3.3442837598257373,-0.6358803471290773,0,0.0,-1.0,0.5311226037948213,20.2,50.5,20.2,50.5,0.732,2.208,2.208,3.684,0.04,0.02,0.08,0.06,0.924,3.8280000000000003,1.836,1.536,24.0,48.0,24.0,48.0,67.5,135.0,67.5,135.0,0.01,0.01,0.01,0.01,0.99,0.5,0.5,0.25,0.01,0.01,0.01,0.01,0.0,24.86167960088692,49.72335920177384,2.5378968308832714,5.281575561080865,8.983375793960331,0.030374370190118,0.0813404307523295,540.3203242905112,17.379813968343022,0.0502977746513188,0.0018689690004548,0,0.0,1.0,1,1.0,18.9349187337184,0.08318727456763397,0.0005606369111209724,0.5,0.0,0.0,0.5,0.0,0.0,
1259,688.7628253365825,5,1,1,300.0,200.0,500.0,62,121.94891100107019,35.76554025370704,1,60,67.28215779369388,35.76554025370704,1,0,0,1,1,0,0,0,0.0817373972408156,-4.205125060322159,-1.5716927128412952,-1.8826141013922744,0.1094102344616144,-5.097248084383078,-2.5646659232311864,-1.01370926639808,0.199558280179969,-6.291448915024859,-4.323670636982125,-2.9605602553669508,0.071992258518483,-2.9093439739236304,-0.1864251042562081,-0.2934594838728734,0.1016763009490788,-4.203528496224556,-1.569017798177082,0.1523070911663827,0.17111473608763,-5.383846281932324,-3.120643650724257,-1.7339160576535138,-0.0325413007168278,1.3365989167801529,0,0.0,1.341047887801395,1.0285002481376484,85.0,212.5,85.0,212.5,1.836,1.476,2.208,2.208,0.06,0.04,0.08,0.02,6.444,9.66,2.58,19.32,24.0,48.0,24.0,48.0,45.0,90.0,45.0,90.0,0.25,0.25,0.25,0.25,0.25,0.25,0.25,0.25,0.25,0.25,0.25,0.25,0.0,32.031151990632324,64.06230398126465,2.1646502144932884,3.3744944371027596,5.753697696170352,0.0358802014094379,0.0857260427109676,509.9286737055783,20.23764389271965,0.0559699462070747,0.0,0,0.0,3.0,1,1.0,18.9349187337184,0.08318727456763397,0.0005606369111209724,0.0,0.0,0.0,0.0,0.0,0.0,
644,3922.948378218528,1,1,1,135.0,0.0,1200.0,69,11.020639542958124,11.020639542958124,1,70,84.65959067920942,84.65959067920942,2,0,1,1,0,0,0,0,0.0832964029307332,-3.986289044723911,-1.2083965888488584,-1.5618320066554103,0.1113433365732377,-4.933548551540772,-2.406918297793434,-0.9874793207191152,0.2475922396090421,-6.971903213006443,-4.766401313832043,-3.564313272343549,0.0691933007852994,-3.242931220626006,-0.6795957895643161,-0.5885334991049254,0.110727311900058,-5.100687636778978,-2.697165177476719,-0.5324881836436515,0.2199701275847501,-7.503974490118346,-5.210047690137698,-3.627356962806201,1.2298549248084611,-2.28899262656582,0,0.0,0.4426050544171361,0.197320635455183,35.0,87.5,35.0,87.5,2.928,4.884,0.972,2.928,0.06,0.02,0.08,0.04,3.912,8.136000000000001,1.956,3.2520000000000002,24.0,48.0,24.0,48.0,240.0,480.0,240.0,480.0,0.01,0.01,0.01,0.01,0.01,0.01,0.01,0.01,0.01,0.01,0.01,0.01,0.0,32.1619819391635,64.323963878327,2.235097731158449,3.4660048596689492,5.9043272610017095,0.0438750794702872,0.036731444540163,946.2708670639884,13.83428634126816,0.0741586227606156,0.0,0,1.0,0.0,0,0.0,13.99234977104385,0.09594660334871877,0.00038075079316306107,0.0,0.0,1.0,0.0,0.0,1.0,
